( Made using CamBam - http://www.cambam.co.uk )
( 50x50 12/4/2017 7:42:43 PM )
( T0 : 1.5 )
G21 G90 G64 G40
G0 Z5.0
( T0 : 1.5 )
T0 M6
( Profile1 )
G17
M3 S1000
G0 X0.0 Y-1.25
G0 Z4.0
G1 F300.0 Z2.8
G1 F400.0 X50.0
G3 X51.25 Y0.0 I0.0 J1.25
G1 Y50.0
G3 X50.0 Y51.25 I-1.25 J0.0
G1 X0.0
G3 X-1.25 Y50.0 I0.0 J-1.25
G1 Y0.0
G3 X0.0 Y-1.25 I1.25 J0.0
G1 F300.0 Y-0.75
G1 F400.0 X50.0
G3 X50.75 Y0.0 I0.0 J0.75
G1 Y50.0
G3 X50.0 Y50.75 I-0.75 J0.0
G1 X0.0
G3 X-0.75 Y50.0 I0.0 J-0.75
G1 Y0.0
G3 X0.0 Y-0.75 I0.75 J0.0
G1 F300.0 Y-1.25
G1 Z2.6
G1 F400.0 X50.0
G3 X51.25 Y0.0 I0.0 J1.25
G1 Y50.0
G3 X50.0 Y51.25 I-1.25 J0.0
G1 X0.0
G3 X-1.25 Y50.0 I0.0 J-1.25
G1 Y0.0
G3 X0.0 Y-1.25 I1.25 J0.0
G1 F300.0 Y-0.75
G1 F400.0 X50.0
G3 X50.75 Y0.0 I0.0 J0.75
G1 Y50.0
G3 X50.0 Y50.75 I-0.75 J0.0
G1 X0.0
G3 X-0.75 Y50.0 I0.0 J-0.75
G1 Y0.0
G3 X0.0 Y-0.75 I0.75 J0.0
G1 F300.0 Y-1.25
G1 Z2.4
G1 F400.0 X50.0
G3 X51.25 Y0.0 I0.0 J1.25
G1 Y50.0
G3 X50.0 Y51.25 I-1.25 J0.0
G1 X0.0
G3 X-1.25 Y50.0 I0.0 J-1.25
G1 Y0.0
G3 X0.0 Y-1.25 I1.25 J0.0
G1 F300.0 Y-0.75
G1 F400.0 X50.0
G3 X50.75 Y0.0 I0.0 J0.75
G1 Y50.0
G3 X50.0 Y50.75 I-0.75 J0.0
G1 X0.0
G3 X-0.75 Y50.0 I0.0 J-0.75
G1 Y0.0
G3 X0.0 Y-0.75 I0.75 J0.0
G1 F300.0 Y-1.25
G1 Z2.2
G1 F400.0 X22.75
G1 X24.25
G1 X25.75
G1 X27.25
G1 X50.0
G3 X51.25 Y0.0 I0.0 J1.25
G1 Y50.0
G3 X50.0 Y51.25 I-1.25 J0.0
G1 X28.25
G1 X26.75
G1 X25.25
G1 X23.75
G1 X0.0
G3 X-1.25 Y50.0 I0.0 J-1.25
G1 Y0.0
G3 X0.0 Y-1.25 I1.25 J0.0
G1 F300.0 Y-0.75
G1 F400.0 X22.75
G1 X24.25
G1 X25.75
G1 X27.25
G1 X50.0
G3 X50.75 Y0.0 I0.0 J0.75
G1 Y50.0
G3 X50.0 Y50.75 I-0.75 J0.0
G1 X28.25
G1 X26.75
G1 X25.25
G1 X23.75
G1 X0.0
G3 X-0.75 Y50.0 I0.0 J-0.75
G1 Y0.0
G3 X0.0 Y-0.75 I0.75 J0.0
G1 F300.0 Y-1.25
G1 Z2.0
G1 F400.0 X22.75
G1 X24.25 Z2.2
G1 X25.75
G1 X27.25 Z2.0
G1 X50.0
G3 X51.25 Y0.0 I0.0 J1.25
G1 Y50.0
G3 X50.0 Y51.25 I-1.25 J0.0
G1 X28.25
G1 X26.75 Z2.2
G1 X25.25
G1 X23.75 Z2.0
G1 X0.0
G3 X-1.25 Y50.0 I0.0 J-1.25
G1 Y0.0
G3 X0.0 Y-1.25 I1.25 J0.0
G1 F300.0 Y-0.75
G1 F400.0 X22.75
G1 X24.25 Z2.2
G1 X25.75
G1 X27.25 Z2.0
G1 X50.0
G3 X50.75 Y0.0 I0.0 J0.75
G1 Y50.0
G3 X50.0 Y50.75 I-0.75 J0.0
G1 X28.25
G1 X26.75 Z2.2
G1 X25.25
G1 X23.75 Z2.0
G1 X0.0
G3 X-0.75 Y50.0 I0.0 J-0.75
G1 Y0.0
G3 X0.0 Y-0.75 I0.75 J0.0
G1 F300.0 Y-1.25
G1 Z1.8
G1 F400.0 X22.75
G1 X24.25 Z2.2
G1 X25.75
G1 X27.25 Z1.8
G1 X50.0
G3 X51.25 Y0.0 I0.0 J1.25
G1 Y50.0
G3 X50.0 Y51.25 I-1.25 J0.0
G1 X28.25
G1 X26.75 Z2.2
G1 X25.25
G1 X23.75 Z1.8
G1 X0.0
G3 X-1.25 Y50.0 I0.0 J-1.25
G1 Y0.0
G3 X0.0 Y-1.25 I1.25 J0.0
G1 F300.0 Y-0.75
G1 F400.0 X22.75
G1 X24.25 Z2.2
G1 X25.75
G1 X27.25 Z1.8
G1 X50.0
G3 X50.75 Y0.0 I0.0 J0.75
G1 Y50.0
G3 X50.0 Y50.75 I-0.75 J0.0
G1 X28.25
G1 X26.75 Z2.2
G1 X25.25
G1 X23.75 Z1.8
G1 X0.0
G3 X-0.75 Y50.0 I0.0 J-0.75
G1 Y0.0
G3 X0.0 Y-0.75 I0.75 J0.0
G1 F300.0 Y-1.25
G1 Z1.6
G1 F400.0 X22.75
G1 X24.25 Z2.2
G1 X25.75
G1 X27.25 Z1.6
G1 X50.0
G3 X51.25 Y0.0 I0.0 J1.25
G1 Y50.0
G3 X50.0 Y51.25 I-1.25 J0.0
G1 X28.25
G1 X26.75 Z2.2
G1 X25.25
G1 X23.75 Z1.6
G1 X0.0
G3 X-1.25 Y50.0 I0.0 J-1.25
G1 Y0.0
G3 X0.0 Y-1.25 I1.25 J0.0
G1 F300.0 Y-0.75
G1 F400.0 X22.75
G1 X24.25 Z2.2
G1 X25.75
G1 X27.25 Z1.6
G1 X50.0
G3 X50.75 Y0.0 I0.0 J0.75
G1 Y50.0
G3 X50.0 Y50.75 I-0.75 J0.0
G1 X28.25
G1 X26.75 Z2.2
G1 X25.25
G1 X23.75 Z1.6
G1 X0.0
G3 X-0.75 Y50.0 I0.0 J-0.75
G1 Y0.0
G3 X0.0 Y-0.75 I0.75 J0.0
G1 F300.0 Y-1.25
G1 Z1.4
G1 F400.0 X22.75
G1 X24.25 Z2.2
G1 X25.75
G1 X27.25 Z1.4
G1 X50.0
G3 X51.25 Y0.0 I0.0 J1.25
G1 Y50.0
G3 X50.0 Y51.25 I-1.25 J0.0
G1 X28.25
G1 X26.75 Z2.2
G1 X25.25
G1 X23.75 Z1.4
G1 X0.0
G3 X-1.25 Y50.0 I0.0 J-1.25
G1 Y0.0
G3 X0.0 Y-1.25 I1.25 J0.0
G1 F300.0 Y-0.75
G1 F400.0 X22.75
G1 X24.25 Z2.2
G1 X25.75
G1 X27.25 Z1.4
G1 X50.0
G3 X50.75 Y0.0 I0.0 J0.75
G1 Y50.0
G3 X50.0 Y50.75 I-0.75 J0.0
G1 X28.25
G1 X26.75 Z2.2
G1 X25.25
G1 X23.75 Z1.4
G1 X0.0
G3 X-0.75 Y50.0 I0.0 J-0.75
G1 Y0.0
G3 X0.0 Y-0.75 I0.75 J0.0
G1 F300.0 Y-1.25
G1 Z1.2
G1 F400.0 X22.75
G1 X24.25 Z2.2
G1 X25.75
G1 X27.25 Z1.2
G1 X50.0
G3 X51.25 Y0.0 I0.0 J1.25
G1 Y50.0
G3 X50.0 Y51.25 I-1.25 J0.0
G1 X28.25
G1 X26.75 Z2.2
G1 X25.25
G1 X23.75 Z1.2
G1 X0.0
G3 X-1.25 Y50.0 I0.0 J-1.25
G1 Y0.0
G3 X0.0 Y-1.25 I1.25 J0.0
G1 F300.0 Y-0.75
G1 F400.0 X22.75
G1 X24.25 Z2.2
G1 X25.75
G1 X27.25 Z1.2
G1 X50.0
G3 X50.75 Y0.0 I0.0 J0.75
G1 Y50.0
G3 X50.0 Y50.75 I-0.75 J0.0
G1 X28.25
G1 X26.75 Z2.2
G1 X25.25
G1 X23.75 Z1.2
G1 X0.0
G3 X-0.75 Y50.0 I0.0 J-0.75
G1 Y0.0
G3 X0.0 Y-0.75 I0.75 J0.0
G1 F300.0 Y-1.25
G1 Z1.0
G1 F400.0 X22.75
G1 X24.25 Z2.2
G1 X25.75
G1 X27.25 Z1.0
G1 X50.0
G3 X51.25 Y0.0 I0.0 J1.25
G1 Y50.0
G3 X50.0 Y51.25 I-1.25 J0.0
G1 X28.25
G1 X26.75 Z2.2
G1 X25.25
G1 X23.75 Z1.0
G1 X0.0
G3 X-1.25 Y50.0 I0.0 J-1.25
G1 Y0.0
G3 X0.0 Y-1.25 I1.25 J0.0
G1 F300.0 Y-0.75
G1 F400.0 X22.75
G1 X24.25 Z2.2
G1 X25.75
G1 X27.25 Z1.0
G1 X50.0
G3 X50.75 Y0.0 I0.0 J0.75
G1 Y50.0
G3 X50.0 Y50.75 I-0.75 J0.0
G1 X28.25
G1 X26.75 Z2.2
G1 X25.25
G1 X23.75 Z1.0
G1 X0.0
G3 X-0.75 Y50.0 I0.0 J-0.75
G1 Y0.0
G3 X0.0 Y-0.75 I0.75 J0.0
G1 F300.0 Y-1.25
G1 Z0.8
G1 F400.0 X22.75
G1 X24.25 Z2.2
G1 X25.75
G1 X27.25 Z0.8
G1 X50.0
G3 X51.25 Y0.0 I0.0 J1.25
G1 Y50.0
G3 X50.0 Y51.25 I-1.25 J0.0
G1 X28.25
G1 X26.75 Z2.2
G1 X25.25
G1 X23.75 Z0.8
G1 X0.0
G3 X-1.25 Y50.0 I0.0 J-1.25
G1 Y0.0
G3 X0.0 Y-1.25 I1.25 J0.0
G1 F300.0 Y-0.75
G1 F400.0 X22.75
G1 X24.25 Z2.2
G1 X25.75
G1 X27.25 Z0.8
G1 X50.0
G3 X50.75 Y0.0 I0.0 J0.75
G1 Y50.0
G3 X50.0 Y50.75 I-0.75 J0.0
G1 X28.25
G1 X26.75 Z2.2
G1 X25.25
G1 X23.75 Z0.8
G1 X0.0
G3 X-0.75 Y50.0 I0.0 J-0.75
G1 Y0.0
G3 X0.0 Y-0.75 I0.75 J0.0
G1 F300.0 Y-1.25
G1 Z0.6
G1 F400.0 X22.75
G1 X24.25 Z2.2
G1 X25.75
G1 X27.25 Z0.6
G1 X50.0
G3 X51.25 Y0.0 I0.0 J1.25
G1 Y50.0
G3 X50.0 Y51.25 I-1.25 J0.0
G1 X28.25
G1 X26.75 Z2.2
G1 X25.25
G1 X23.75 Z0.6
G1 X0.0
G3 X-1.25 Y50.0 I0.0 J-1.25
G1 Y0.0
G3 X0.0 Y-1.25 I1.25 J0.0
G1 F300.0 Y-0.75
G1 F400.0 X22.75
G1 X24.25 Z2.2
G1 X25.75
G1 X27.25 Z0.6
G1 X50.0
G3 X50.75 Y0.0 I0.0 J0.75
G1 Y50.0
G3 X50.0 Y50.75 I-0.75 J0.0
G1 X28.25
G1 X26.75 Z2.2
G1 X25.25
G1 X23.75 Z0.6
G1 X0.0
G3 X-0.75 Y50.0 I0.0 J-0.75
G1 Y0.0
G3 X0.0 Y-0.75 I0.75 J0.0
G1 F300.0 Y-1.25
G1 Z0.4
G1 F400.0 X22.75
G1 X24.25 Z2.2
G1 X25.75
G1 X27.25 Z0.4
G1 X50.0
G3 X51.25 Y0.0 I0.0 J1.25
G1 Y50.0
G3 X50.0 Y51.25 I-1.25 J0.0
G1 X28.25
G1 X26.75 Z2.2
G1 X25.25
G1 X23.75 Z0.4
G1 X0.0
G3 X-1.25 Y50.0 I0.0 J-1.25
G1 Y0.0
G3 X0.0 Y-1.25 I1.25 J0.0
G1 F300.0 Y-0.75
G1 F400.0 X22.75
G1 X24.25 Z2.2
G1 X25.75
G1 X27.25 Z0.4
G1 X50.0
G3 X50.75 Y0.0 I0.0 J0.75
G1 Y50.0
G3 X50.0 Y50.75 I-0.75 J0.0
G1 X28.25
G1 X26.75 Z2.2
G1 X25.25
G1 X23.75 Z0.4
G1 X0.0
G3 X-0.75 Y50.0 I0.0 J-0.75
G1 Y0.0
G3 X0.0 Y-0.75 I0.75 J0.0
G1 F300.0 Y-1.25
G1 Z0.2
G1 F400.0 X22.75
G1 X24.25 Z2.2
G1 X25.75
G1 X27.25 Z0.2
G1 X50.0
G3 X51.25 Y0.0 I0.0 J1.25
G1 Y50.0
G3 X50.0 Y51.25 I-1.25 J0.0
G1 X28.25
G1 X26.75 Z2.2
G1 X25.25
G1 X23.75 Z0.2
G1 X0.0
G3 X-1.25 Y50.0 I0.0 J-1.25
G1 Y0.0
G3 X0.0 Y-1.25 I1.25 J0.0
G1 F300.0 Y-0.75
G1 F400.0 X22.75
G1 X24.25 Z2.2
G1 X25.75
G1 X27.25 Z0.2
G1 X50.0
G3 X50.75 Y0.0 I0.0 J0.75
G1 Y50.0
G3 X50.0 Y50.75 I-0.75 J0.0
G1 X28.25
G1 X26.75 Z2.2
G1 X25.25
G1 X23.75 Z0.2
G1 X0.0
G3 X-0.75 Y50.0 I0.0 J-0.75
G1 Y0.0
G3 X0.0 Y-0.75 I0.75 J0.0
G1 F300.0 Y-1.25
G1 Z0.0
G1 F400.0 X22.75
G1 X24.25 Z2.2
G1 X25.75
G1 X27.25 Z0.0
G1 X50.0
G3 X51.25 Y0.0 I0.0 J1.25
G1 Y50.0
G3 X50.0 Y51.25 I-1.25 J0.0
G1 X28.25
G1 X26.75 Z2.2
G1 X25.25
G1 X23.75 Z0.0
G1 X0.0
G3 X-1.25 Y50.0 I0.0 J-1.25
G1 Y0.0
G3 X0.0 Y-1.25 I1.25 J0.0
G1 F300.0 Y-0.75
G1 F400.0 X22.75
G1 X24.25 Z2.2
G1 X25.75
G1 X27.25 Z0.0
G1 X50.0
G3 X50.75 Y0.0 I0.0 J0.75
G1 Y50.0
G3 X50.0 Y50.75 I-0.75 J0.0
G1 X28.25
G1 X26.75 Z2.2
G1 X25.25
G1 X23.75 Z0.0
G1 X0.0
G3 X-0.75 Y50.0 I0.0 J-0.75
G1 Y0.0
G3 X0.0 Y-0.75 I0.75 J0.0
G1 F300.0 Y-1.25
G1 Z-0.2
G1 F400.0 X22.75
G1 X24.25 Z2.2
G1 X25.75
G1 X27.25 Z-0.2
G1 X50.0
G3 X51.25 Y0.0 I0.0 J1.25
G1 Y50.0
G3 X50.0 Y51.25 I-1.25 J0.0
G1 X28.25
G1 X26.75 Z2.2
G1 X25.25
G1 X23.75 Z-0.2
G1 X0.0
G3 X-1.25 Y50.0 I0.0 J-1.25
G1 Y0.0
G3 X0.0 Y-1.25 I1.25 J0.0
G1 F300.0 Y-0.75
G1 F400.0 X22.75
G1 X24.25 Z2.2
G1 X25.75
G1 X27.25 Z-0.2
G1 X50.0
G3 X50.75 Y0.0 I0.0 J0.75
G1 Y50.0
G3 X50.0 Y50.75 I-0.75 J0.0
G1 X28.25
G1 X26.75 Z2.2
G1 X25.25
G1 X23.75 Z-0.2
G1 X0.0
G3 X-0.75 Y50.0 I0.0 J-0.75
G1 Y0.0
G3 X0.0 Y-0.75 I0.75 J0.0
G1 F300.0 Y-1.25
G1 Z-0.4
G1 F400.0 X22.75
G1 X24.25 Z2.2
G1 X25.75
G1 X27.25 Z-0.4
G1 X50.0
G3 X51.25 Y0.0 I0.0 J1.25
G1 Y50.0
G3 X50.0 Y51.25 I-1.25 J0.0
G1 X28.25
G1 X26.75 Z2.2
G1 X25.25
G1 X23.75 Z-0.4
G1 X0.0
G3 X-1.25 Y50.0 I0.0 J-1.25
G1 Y0.0
G3 X0.0 Y-1.25 I1.25 J0.0
G1 F300.0 Y-0.75
G1 F400.0 X22.75
G1 X24.25 Z2.2
G1 X25.75
G1 X27.25 Z-0.4
G1 X50.0
G3 X50.75 Y0.0 I0.0 J0.75
G1 Y50.0
G3 X50.0 Y50.75 I-0.75 J0.0
G1 X28.25
G1 X26.75 Z2.2
G1 X25.25
G1 X23.75 Z-0.4
G1 X0.0
G3 X-0.75 Y50.0 I0.0 J-0.75
G1 Y0.0
G3 X0.0 Y-0.75 I0.75 J0.0
G1 F300.0 Y-1.25
G1 Z-0.6
G1 F400.0 X22.75
G1 X24.25 Z2.2
G1 X25.75
G1 X27.25 Z-0.6
G1 X50.0
G3 X51.25 Y0.0 I0.0 J1.25
G1 Y50.0
G3 X50.0 Y51.25 I-1.25 J0.0
G1 X28.25
G1 X26.75 Z2.2
G1 X25.25
G1 X23.75 Z-0.6
G1 X0.0
G3 X-1.25 Y50.0 I0.0 J-1.25
G1 Y0.0
G3 X0.0 Y-1.25 I1.25 J0.0
G1 F300.0 Y-0.75
G1 F400.0 X22.75
G1 X24.25 Z2.2
G1 X25.75
G1 X27.25 Z-0.6
G1 X50.0
G3 X50.75 Y0.0 I0.0 J0.75
G1 Y50.0
G3 X50.0 Y50.75 I-0.75 J0.0
G1 X28.25
G1 X26.75 Z2.2
G1 X25.25
G1 X23.75 Z-0.6
G1 X0.0
G3 X-0.75 Y50.0 I0.0 J-0.75
G1 Y0.0
G3 X0.0 Y-0.75 I0.75 J0.0
G1 F300.0 Y-1.25
G1 Z-0.8
G1 F400.0 X22.75
G1 X24.25 Z2.2
G1 X25.75
G1 X27.25 Z-0.8
G1 X50.0
G3 X51.25 Y0.0 I0.0 J1.25
G1 Y50.0
G3 X50.0 Y51.25 I-1.25 J0.0
G1 X28.25
G1 X26.75 Z2.2
G1 X25.25
G1 X23.75 Z-0.8
G1 X0.0
G3 X-1.25 Y50.0 I0.0 J-1.25
G1 Y0.0
G3 X0.0 Y-1.25 I1.25 J0.0
G1 F300.0 Y-0.75
G1 F400.0 X22.75
G1 X24.25 Z2.2
G1 X25.75
G1 X27.25 Z-0.8
G1 X50.0
G3 X50.75 Y0.0 I0.0 J0.75
G1 Y50.0
G3 X50.0 Y50.75 I-0.75 J0.0
G1 X28.25
G1 X26.75 Z2.2
G1 X25.25
G1 X23.75 Z-0.8
G1 X0.0
G3 X-0.75 Y50.0 I0.0 J-0.75
G1 Y0.0
G3 X0.0 Y-0.75 I0.75 J0.0
G0 Z5.0
M5
M30
