( Made using CamBam - http://www.cambam.co.uk )
( Heart._solidSLDPRT 11/26/2017 12:57:48 PM )
( T0 : 3.175 )
G21 G90 G64 G40
G0 Z8.0
( T0 : 3.175 )
T0 M6
( Profile1 )
G17
M3 S1000
G0 X147.948 Y28.7314
G0 Z7.0
G1 F300.0 Z5.6
G3 F500.0 X152.052 I2.052 J1.2686
G1 X179.8108 Y73.6329
G3 X150.0 Y91.6319 I-14.8108 J9.1562
G3 X120.1892 Y73.6329 I-15.0 J-8.8428
G1 X147.948 Y28.7314
G1 F300.0 X148.6497 Y29.1652
G3 F500.0 X151.3503 I1.3503 J0.8348
G1 X179.109 Y74.0667
G3 X150.0 Y89.8704 I-14.109 J8.7224
G3 X120.891 Y74.0667 I-15.0 J-7.0813
G1 X148.6497 Y29.1652
G1 F300.0 X147.948 Y28.7314
G1 Z5.2
G3 F500.0 X152.052 I2.052 J1.2686
G1 X179.8108 Y73.6329
G3 X150.0 Y91.6319 I-14.8108 J9.1562
G3 X120.1892 Y73.6329 I-15.0 J-8.8428
G1 X147.948 Y28.7314
G1 F300.0 X148.6497 Y29.1652
G3 F500.0 X151.3503 I1.3503 J0.8348
G1 X179.109 Y74.0667
G3 X150.0 Y89.8704 I-14.109 J8.7224
G3 X120.891 Y74.0667 I-15.0 J-7.0813
G1 X148.6497 Y29.1652
G1 F300.0 X147.948 Y28.7314
G1 Z4.8
G3 F500.0 X152.052 I2.052 J1.2686
G1 X179.8108 Y73.6329
G3 X150.0 Y91.6319 I-14.8108 J9.1562
G3 X120.1892 Y73.6329 I-15.0 J-8.8428
G1 X147.948 Y28.7314
G1 F300.0 X148.6497 Y29.1652
G3 F500.0 X151.3503 I1.3503 J0.8348
G1 X179.109 Y74.0667
G3 X150.0 Y89.8704 I-14.109 J8.7224
G3 X120.891 Y74.0667 I-15.0 J-7.0813
G1 X148.6497 Y29.1652
G1 F300.0 X147.948 Y28.7314
G1 Z4.4
G3 F500.0 X152.052 I2.052 J1.2686
G1 X179.8108 Y73.6329
G3 X150.0 Y91.6319 I-14.8108 J9.1562
G3 X120.1892 Y73.6329 I-15.0 J-8.8428
G1 X147.948 Y28.7314
G1 F300.0 X148.6497 Y29.1652
G3 F500.0 X151.3503 I1.3503 J0.8348
G1 X179.109 Y74.0667
G3 X150.0 Y89.8704 I-14.109 J8.7224
G3 X120.891 Y74.0667 I-15.0 J-7.0813
G1 X148.6497 Y29.1652
G1 F300.0 X147.948 Y28.7314
G1 Z4.0
G3 F500.0 X152.052 I2.052 J1.2686
G1 X179.8108 Y73.6329
G3 X150.0 Y91.6319 I-14.8108 J9.1562
G3 X120.1892 Y73.6329 I-15.0 J-8.8428
G1 X147.948 Y28.7314
G1 F300.0 X148.6497 Y29.1652
G3 F500.0 X151.3503 I1.3503 J0.8348
G1 X179.109 Y74.0667
G3 X150.0 Y89.8704 I-14.109 J8.7224
G3 X120.891 Y74.0667 I-15.0 J-7.0813
G1 X148.6497 Y29.1652
G1 F300.0 X147.948 Y28.7314
G1 Z3.6
G3 F500.0 X152.052 I2.052 J1.2686
G1 X179.8108 Y73.6329
G3 X150.0 Y91.6319 I-14.8108 J9.1562
G3 X120.1892 Y73.6329 I-15.0 J-8.8428
G1 X147.948 Y28.7314
G1 F300.0 X148.6497 Y29.1652
G3 F500.0 X151.3503 I1.3503 J0.8348
G1 X179.109 Y74.0667
G3 X150.0 Y89.8704 I-14.109 J8.7224
G3 X120.891 Y74.0667 I-15.0 J-7.0813
G1 X148.6497 Y29.1652
G1 F300.0 X147.948 Y28.7314
G1 Z3.2
G3 F500.0 X152.052 I2.052 J1.2686
G1 X179.8108 Y73.6329
G3 X150.0 Y91.6319 I-14.8108 J9.1562
G3 X120.1892 Y73.6329 I-15.0 J-8.8428
G1 X147.948 Y28.7314
G1 F300.0 X148.6497 Y29.1652
G3 F500.0 X151.3503 I1.3503 J0.8348
G1 X179.109 Y74.0667
G3 X150.0 Y89.8704 I-14.109 J8.7224
G3 X120.891 Y74.0667 I-15.0 J-7.0813
G1 X148.6497 Y29.1652
G1 F300.0 X147.948 Y28.7314
G1 Z2.8
G3 F500.0 X152.052 I2.052 J1.2686
G1 X179.8108 Y73.6329
G3 X150.0 Y91.6319 I-14.8108 J9.1562
G3 X120.1892 Y73.6329 I-15.0 J-8.8428
G1 X147.948 Y28.7314
G1 F300.0 X148.6497 Y29.1652
G3 F500.0 X151.3503 I1.3503 J0.8348
G1 X179.109 Y74.0667
G3 X150.0 Y89.8704 I-14.109 J8.7224
G3 X120.891 Y74.0667 I-15.0 J-7.0813
G1 X148.6497 Y29.1652
G1 F300.0 X147.948 Y28.7314
G1 Z2.4
G3 F500.0 X152.052 I2.052 J1.2686
G1 X179.8108 Y73.6329
G3 X150.0 Y91.6319 I-14.8108 J9.1562
G3 X120.1892 Y73.6329 I-15.0 J-8.8428
G1 X147.948 Y28.7314
G1 F300.0 X148.6497 Y29.1652
G3 F500.0 X151.3503 I1.3503 J0.8348
G1 X179.109 Y74.0667
G3 X150.0 Y89.8704 I-14.109 J8.7224
G3 X120.891 Y74.0667 I-15.0 J-7.0813
G1 X148.6497 Y29.1652
G1 F300.0 X147.948 Y28.7314
G1 Z2.0
G3 F500.0 X152.052 I2.052 J1.2686
G1 X179.8108 Y73.6329
G3 X150.0 Y91.6319 I-14.8108 J9.1562
G3 X120.1892 Y73.6329 I-15.0 J-8.8428
G1 X147.948 Y28.7314
G1 F300.0 X148.6497 Y29.1652
G3 F500.0 X151.3503 I1.3503 J0.8348
G1 X179.109 Y74.0667
G3 X150.0 Y89.8704 I-14.109 J8.7224
G3 X120.891 Y74.0667 I-15.0 J-7.0813
G1 X148.6497 Y29.1652
G1 F300.0 X147.948 Y28.7314
G1 Z1.6
G3 F500.0 X152.052 I2.052 J1.2686
G1 X179.8108 Y73.6329
G3 X150.0 Y91.6319 I-14.8108 J9.1562
G3 X120.1892 Y73.6329 I-15.0 J-8.8428
G1 X147.948 Y28.7314
G1 F300.0 X148.6497 Y29.1652
G3 F500.0 X151.3503 I1.3503 J0.8348
G1 X179.109 Y74.0667
G3 X150.0 Y89.8704 I-14.109 J8.7224
G3 X120.891 Y74.0667 I-15.0 J-7.0813
G1 X148.6497 Y29.1652
G1 F300.0 X147.948 Y28.7314
G1 Z1.2
G3 F500.0 X152.052 I2.052 J1.2686
G1 X164.655 Y49.1174
G1 X165.4437 Y50.3933
G1 X167.1133 Y53.0939
G1 X167.902 Y54.3698
G1 X179.8108 Y73.6329
G3 X171.9584 Y98.7508 I-14.8108 J9.1562
G3 X170.5458 Y99.2948 I-6.9584 J-15.9617
G3 X167.4565 Y100.0275 I-5.5458 J-16.5057
G3 X165.9501 Y100.1757 I-2.4565 J-17.2383
G3 X150.0 Y91.6319 I-0.9501 J-17.3866
G3 X134.0499 Y100.1757 I-15.0 J-8.8428
G3 X132.5435 Y100.0275 I0.9501 J-17.3866
G3 X129.4542 Y99.2948 I2.4565 J-17.2383
G3 X128.0416 Y98.7508 I5.5458 J-16.5057
G3 X120.1892 Y73.6329 I6.9584 J-15.9617
G1 X132.098 Y54.3698
G1 X132.8867 Y53.0939
G1 X134.5563 Y50.3933
G1 X135.345 Y49.1174
G1 X147.948 Y28.7314
G1 F300.0 X148.6497 Y29.1652
G3 F500.0 X151.3503 I1.3503 J0.8348
G1 X163.9532 Y49.5513
G1 X164.742 Y50.8271
G1 X166.4115 Y53.5277
G1 X167.2003 Y54.8036
G1 X179.109 Y74.0667
G3 X171.7648 Y97.9345 I-14.109 J8.7224
G3 X170.3546 Y98.4886 I-6.7648 J-15.1454
G3 X167.2653 Y99.2212 I-5.3546 J-15.6995
G3 X165.7565 Y99.3594 I-2.2653 J-16.4321
G3 X150.0 Y89.8704 I-0.7565 J-16.5702
G3 X134.2435 Y99.3594 I-15.0 J-7.0813
G3 X132.7347 Y99.2212 I0.7565 J-16.5702
G3 X129.6454 Y98.4886 I2.2653 J-16.4321
G3 X128.2352 Y97.9345 I5.3546 J-15.6995
G3 X120.891 Y74.0667 I6.7648 J-15.1454
G1 X132.7997 Y54.8036
G1 X133.5885 Y53.5277
G1 X135.258 Y50.8271
G1 X136.0468 Y49.5513
G1 X148.6497 Y29.1652
G1 F300.0 X147.948 Y28.7314
G1 Z0.8
G3 F500.0 X152.052 I2.052 J1.2686
G1 X164.655 Y49.1174
G1 X165.4437 Y50.3933 Z1.2
G1 X167.1133 Y53.0939
G1 X167.902 Y54.3698 Z0.8
G1 X179.8108 Y73.6329
G3 X171.9584 Y98.7508 I-14.8108 J9.1562
G3 X170.5458 Y99.2948 Z1.2 I-6.9584 J-15.9617
G3 X167.4565 Y100.0275 I-5.5458 J-16.5057
G3 X165.9501 Y100.1757 Z0.8 I-2.4565 J-17.2383
G3 X150.0 Y91.6319 I-0.9501 J-17.3866
G3 X134.0499 Y100.1757 I-15.0 J-8.8428
G3 X132.5435 Y100.0275 Z1.2 I0.9501 J-17.3866
G3 X129.4542 Y99.2948 I2.4565 J-17.2383
G3 X128.0416 Y98.7508 Z0.8 I5.5458 J-16.5057
G3 X120.1892 Y73.6329 I6.9584 J-15.9617
G1 X132.098 Y54.3698
G1 X132.8867 Y53.0939 Z1.2
G1 X134.5563 Y50.3933
G1 X135.345 Y49.1174 Z0.8
G1 X147.948 Y28.7314
G1 F300.0 X148.6497 Y29.1652
G3 F500.0 X151.3503 I1.3503 J0.8348
G1 X163.9532 Y49.5513
G1 X164.742 Y50.8271 Z1.2
G1 X166.4115 Y53.5277
G1 X167.2003 Y54.8036 Z0.8
G1 X179.109 Y74.0667
G3 X171.7648 Y97.9345 I-14.109 J8.7224
G3 X170.3546 Y98.4886 Z1.2 I-6.7648 J-15.1454
G3 X167.2653 Y99.2212 I-5.3546 J-15.6995
G3 X165.7565 Y99.3594 Z0.8 I-2.2653 J-16.4321
G3 X150.0 Y89.8704 I-0.7565 J-16.5702
G3 X134.2435 Y99.3594 I-15.0 J-7.0813
G3 X132.7347 Y99.2212 Z1.2 I0.7565 J-16.5702
G3 X129.6454 Y98.4886 I2.2653 J-16.4321
G3 X128.2352 Y97.9345 Z0.8 I5.3546 J-15.6995
G3 X120.891 Y74.0667 I6.7648 J-15.1454
G1 X132.7997 Y54.8036
G1 X133.5885 Y53.5277 Z1.2
G1 X135.258 Y50.8271
G1 X136.0468 Y49.5513 Z0.8
G1 X148.6497 Y29.1652
G1 F300.0 X147.948 Y28.7314
G1 Z0.4
G3 F500.0 X152.052 I2.052 J1.2686
G1 X164.655 Y49.1174
G1 X165.4437 Y50.3933 Z1.2
G1 X167.1133 Y53.0939
G1 X167.902 Y54.3698 Z0.4
G1 X179.8108 Y73.6329
G3 X171.9584 Y98.7508 I-14.8108 J9.1562
G3 X170.5458 Y99.2948 Z1.2 I-6.9584 J-15.9617
G3 X167.4565 Y100.0275 I-5.5458 J-16.5057
G3 X165.9501 Y100.1757 Z0.4 I-2.4565 J-17.2383
G3 X150.0 Y91.6319 I-0.9501 J-17.3866
G3 X134.0499 Y100.1757 I-15.0 J-8.8428
G3 X132.5435 Y100.0275 Z1.2 I0.9501 J-17.3866
G3 X129.4542 Y99.2948 I2.4565 J-17.2383
G3 X128.0416 Y98.7508 Z0.4 I5.5458 J-16.5057
G3 X120.1892 Y73.6329 I6.9584 J-15.9617
G1 X132.098 Y54.3698
G1 X132.8867 Y53.0939 Z1.2
G1 X134.5563 Y50.3933
G1 X135.345 Y49.1174 Z0.4
G1 X147.948 Y28.7314
G1 F300.0 X148.6497 Y29.1652
G3 F500.0 X151.3503 I1.3503 J0.8348
G1 X163.9532 Y49.5513
G1 X164.742 Y50.8271 Z1.2
G1 X166.4115 Y53.5277
G1 X167.2003 Y54.8036 Z0.4
G1 X179.109 Y74.0667
G3 X171.7648 Y97.9345 I-14.109 J8.7224
G3 X170.3546 Y98.4886 Z1.2 I-6.7648 J-15.1454
G3 X167.2653 Y99.2212 I-5.3546 J-15.6995
G3 X165.7565 Y99.3594 Z0.4 I-2.2653 J-16.4321
G3 X150.0 Y89.8704 I-0.7565 J-16.5702
G3 X134.2435 Y99.3594 I-15.0 J-7.0813
G3 X132.7347 Y99.2212 Z1.2 I0.7565 J-16.5702
G3 X129.6454 Y98.4886 I2.2653 J-16.4321
G3 X128.2352 Y97.9345 Z0.4 I5.3546 J-15.6995
G3 X120.891 Y74.0667 I6.7648 J-15.1454
G1 X132.7997 Y54.8036
G1 X133.5885 Y53.5277 Z1.2
G1 X135.258 Y50.8271
G1 X136.0468 Y49.5513 Z0.4
G1 X148.6497 Y29.1652
G1 F300.0 X147.948 Y28.7314
G1 Z0.0
G3 F500.0 X152.052 I2.052 J1.2686
G1 X164.655 Y49.1174
G1 X165.4437 Y50.3933 Z1.2
G1 X167.1133 Y53.0939
G1 X167.902 Y54.3698 Z0.0
G1 X179.8108 Y73.6329
G3 X171.9584 Y98.7508 I-14.8108 J9.1562
G3 X170.5458 Y99.2948 Z1.2 I-6.9584 J-15.9617
G3 X167.4565 Y100.0275 I-5.5458 J-16.5057
G3 X165.9501 Y100.1757 Z0.0 I-2.4565 J-17.2383
G3 X150.0 Y91.6319 I-0.9501 J-17.3866
G3 X134.0499 Y100.1757 I-15.0 J-8.8428
G3 X132.5435 Y100.0275 Z1.2 I0.9501 J-17.3866
G3 X129.4542 Y99.2948 I2.4565 J-17.2383
G3 X128.0416 Y98.7508 Z0.0 I5.5458 J-16.5057
G3 X120.1892 Y73.6329 I6.9584 J-15.9617
G1 X132.098 Y54.3698
G1 X132.8867 Y53.0939 Z1.2
G1 X134.5563 Y50.3933
G1 X135.345 Y49.1174 Z0.0
G1 X147.948 Y28.7314
G1 F300.0 X148.6497 Y29.1652
G3 F500.0 X151.3503 I1.3503 J0.8348
G1 X163.9532 Y49.5513
G1 X164.742 Y50.8271 Z1.2
G1 X166.4115 Y53.5277
G1 X167.2003 Y54.8036 Z0.0
G1 X179.109 Y74.0667
G3 X171.7648 Y97.9345 I-14.109 J8.7224
G3 X170.3546 Y98.4886 Z1.2 I-6.7648 J-15.1454
G3 X167.2653 Y99.2212 I-5.3546 J-15.6995
G3 X165.7565 Y99.3594 Z0.0 I-2.2653 J-16.4321
G3 X150.0 Y89.8704 I-0.7565 J-16.5702
G3 X134.2435 Y99.3594 I-15.0 J-7.0813
G3 X132.7347 Y99.2212 Z1.2 I0.7565 J-16.5702
G3 X129.6454 Y98.4886 I2.2653 J-16.4321
G3 X128.2352 Y97.9345 Z0.0 I5.3546 J-15.6995
G3 X120.891 Y74.0667 I6.7648 J-15.1454
G1 X132.7997 Y54.8036
G1 X133.5885 Y53.5277 Z1.2
G1 X135.258 Y50.8271
G1 X136.0468 Y49.5513 Z0.0
G1 X148.6497 Y29.1652
G1 F300.0 X147.948 Y28.7314
G1 Z-0.4
G3 F500.0 X152.052 I2.052 J1.2686
G1 X164.655 Y49.1174
G1 X165.4437 Y50.3933 Z1.2
G1 X167.1133 Y53.0939
G1 X167.902 Y54.3698 Z-0.4
G1 X179.8108 Y73.6329
G3 X171.9584 Y98.7508 I-14.8108 J9.1562
G3 X170.5458 Y99.2948 Z1.2 I-6.9584 J-15.9617
G3 X167.4565 Y100.0275 I-5.5458 J-16.5057
G3 X165.9501 Y100.1757 Z-0.4 I-2.4565 J-17.2383
G3 X150.0 Y91.6319 I-0.9501 J-17.3866
G3 X134.0499 Y100.1757 I-15.0 J-8.8428
G3 X132.5435 Y100.0275 Z1.2 I0.9501 J-17.3866
G3 X129.4542 Y99.2948 I2.4565 J-17.2383
G3 X128.0416 Y98.7508 Z-0.4 I5.5458 J-16.5057
G3 X120.1892 Y73.6329 I6.9584 J-15.9617
G1 X132.098 Y54.3698
G1 X132.8867 Y53.0939 Z1.2
G1 X134.5563 Y50.3933
G1 X135.345 Y49.1174 Z-0.4
G1 X147.948 Y28.7314
G1 F300.0 X148.6497 Y29.1652
G3 F500.0 X151.3503 I1.3503 J0.8348
G1 X163.9532 Y49.5513
G1 X164.742 Y50.8271 Z1.2
G1 X166.4115 Y53.5277
G1 X167.2003 Y54.8036 Z-0.4
G1 X179.109 Y74.0667
G3 X171.7648 Y97.9345 I-14.109 J8.7224
G3 X170.3546 Y98.4886 Z1.2 I-6.7648 J-15.1454
G3 X167.2653 Y99.2212 I-5.3546 J-15.6995
G3 X165.7565 Y99.3594 Z-0.4 I-2.2653 J-16.4321
G3 X150.0 Y89.8704 I-0.7565 J-16.5702
G3 X134.2435 Y99.3594 I-15.0 J-7.0813
G3 X132.7347 Y99.2212 Z1.2 I0.7565 J-16.5702
G3 X129.6454 Y98.4886 I2.2653 J-16.4321
G3 X128.2352 Y97.9345 Z-0.4 I5.3546 J-15.6995
G3 X120.891 Y74.0667 I6.7648 J-15.1454
G1 X132.7997 Y54.8036
G1 X133.5885 Y53.5277 Z1.2
G1 X135.258 Y50.8271
G1 X136.0468 Y49.5513 Z-0.4
G1 X148.6497 Y29.1652
G1 F300.0 X147.948 Y28.7314
G1 Z-0.6
G3 F500.0 X152.052 I2.052 J1.2686
G1 X164.655 Y49.1174
G1 X165.4437 Y50.3933 Z1.2
G1 X167.1133 Y53.0939
G1 X167.902 Y54.3698 Z-0.6
G1 X179.8108 Y73.6329
G3 X171.9584 Y98.7508 I-14.8108 J9.1562
G3 X170.5458 Y99.2948 Z1.2 I-6.9584 J-15.9617
G3 X167.4565 Y100.0275 I-5.5458 J-16.5057
G3 X165.9501 Y100.1757 Z-0.6 I-2.4565 J-17.2383
G3 X150.0 Y91.6319 I-0.9501 J-17.3866
G3 X134.0499 Y100.1757 I-15.0 J-8.8428
G3 X132.5435 Y100.0275 Z1.2 I0.9501 J-17.3866
G3 X129.4542 Y99.2948 I2.4565 J-17.2383
G3 X128.0416 Y98.7508 Z-0.6 I5.5458 J-16.5057
G3 X120.1892 Y73.6329 I6.9584 J-15.9617
G1 X132.098 Y54.3698
G1 X132.8867 Y53.0939 Z1.2
G1 X134.5563 Y50.3933
G1 X135.345 Y49.1174 Z-0.6
G1 X147.948 Y28.7314
G1 F300.0 X148.6497 Y29.1652
G3 F500.0 X151.3503 I1.3503 J0.8348
G1 X163.9532 Y49.5513
G1 X164.742 Y50.8271 Z1.2
G1 X166.4115 Y53.5277
G1 X167.2003 Y54.8036 Z-0.6
G1 X179.109 Y74.0667
G3 X171.7648 Y97.9345 I-14.109 J8.7224
G3 X170.3546 Y98.4886 Z1.2 I-6.7648 J-15.1454
G3 X167.2653 Y99.2212 I-5.3546 J-15.6995
G3 X165.7565 Y99.3594 Z-0.6 I-2.2653 J-16.4321
G3 X150.0 Y89.8704 I-0.7565 J-16.5702
G3 X134.2435 Y99.3594 I-15.0 J-7.0813
G3 X132.7347 Y99.2212 Z1.2 I0.7565 J-16.5702
G3 X129.6454 Y98.4886 I2.2653 J-16.4321
G3 X128.2352 Y97.9345 Z-0.6 I5.3546 J-15.6995
G3 X120.891 Y74.0667 I6.7648 J-15.1454
G1 X132.7997 Y54.8036
G1 X133.5885 Y53.5277 Z1.2
G1 X135.258 Y50.8271
G1 X136.0468 Y49.5513 Z-0.6
G1 X148.6497 Y29.1652
G1 F300.0 X147.948 Y28.7314
G1 Z-0.8
G3 F500.0 X152.052 I2.052 J1.2686
G1 X164.655 Y49.1174
G1 X165.4437 Y50.3933 Z1.2
G1 X167.1133 Y53.0939
G1 X167.902 Y54.3698 Z-0.8
G1 X179.8108 Y73.6329
G3 X171.9584 Y98.7508 I-14.8108 J9.1562
G3 X170.5458 Y99.2948 Z1.2 I-6.9584 J-15.9617
G3 X167.4565 Y100.0275 I-5.5458 J-16.5057
G3 X165.9501 Y100.1757 Z-0.8 I-2.4565 J-17.2383
G3 X150.0 Y91.6319 I-0.9501 J-17.3866
G3 X134.0499 Y100.1757 I-15.0 J-8.8428
G3 X132.5435 Y100.0275 Z1.2 I0.9501 J-17.3866
G3 X129.4542 Y99.2948 I2.4565 J-17.2383
G3 X128.0416 Y98.7508 Z-0.8 I5.5458 J-16.5057
G3 X120.1892 Y73.6329 I6.9584 J-15.9617
G1 X132.098 Y54.3698
G1 X132.8867 Y53.0939 Z1.2
G1 X134.5563 Y50.3933
G1 X135.345 Y49.1174 Z-0.8
G1 X147.948 Y28.7314
G1 F300.0 X148.6497 Y29.1652
G3 F500.0 X151.3503 I1.3503 J0.8348
G1 X163.9532 Y49.5513
G1 X164.742 Y50.8271 Z1.2
G1 X166.4115 Y53.5277
G1 X167.2003 Y54.8036 Z-0.8
G1 X179.109 Y74.0667
G3 X171.7648 Y97.9345 I-14.109 J8.7224
G3 X170.3546 Y98.4886 Z1.2 I-6.7648 J-15.1454
G3 X167.2653 Y99.2212 I-5.3546 J-15.6995
G3 X165.7565 Y99.3594 Z-0.8 I-2.2653 J-16.4321
G3 X150.0 Y89.8704 I-0.7565 J-16.5702
G3 X134.2435 Y99.3594 I-15.0 J-7.0813
G3 X132.7347 Y99.2212 Z1.2 I0.7565 J-16.5702
G3 X129.6454 Y98.4886 I2.2653 J-16.4321
G3 X128.2352 Y97.9345 Z-0.8 I5.3546 J-15.6995
G3 X120.891 Y74.0667 I6.7648 J-15.1454
G1 X132.7997 Y54.8036
G1 X133.5885 Y53.5277 Z1.2
G1 X135.258 Y50.8271
G1 X136.0468 Y49.5513 Z-0.8
G1 X148.6497 Y29.1652
G0 Z8.0
M5
M30
