( Made using CamBam - http://www.cambam.co.uk )
( Heart._solidSLDPRT 11/26/2017 11:59:11 AM )
( T0 : 3.175 )
G21 G90 G64 G40
G0 Z3.0
( T0 : 3.175 )
T0 M6
( Profile1 )
G17
M3 S1000
G0 X97.948 Y98.7314
G1 F300.0 Z6.0
G3 F800.0 X102.052 I2.052 J1.2686
G1 X129.8108 Y143.6329
G3 X100.0 Y161.6319 I-14.8108 J9.1562
G3 X70.1892 Y143.6329 I-15.0 J-8.8428
G1 X97.948 Y98.7314
G1 F300.0 X98.6497 Y99.1652
G3 F800.0 X101.3503 I1.3503 J0.8348
G1 X129.109 Y144.0667
G3 X100.0 Y159.8704 I-14.109 J8.7224
G3 X70.891 Y144.0667 I-15.0 J-7.0813
G1 X98.6497 Y99.1652
G0 X97.948 Y98.7314
G1 F300.0 Z5.6
G3 F800.0 X102.052 I2.052 J1.2686
G1 X129.8108 Y143.6329
G3 X100.0 Y161.6319 I-14.8108 J9.1562
G3 X70.1892 Y143.6329 I-15.0 J-8.8428
G1 X97.948 Y98.7314
G1 F300.0 X98.6497 Y99.1652
G3 F800.0 X101.3503 I1.3503 J0.8348
G1 X129.109 Y144.0667
G3 X100.0 Y159.8704 I-14.109 J8.7224
G3 X70.891 Y144.0667 I-15.0 J-7.0813
G1 X98.6497 Y99.1652
G0 X97.948 Y98.7314
G1 F300.0 Z5.2
G3 F800.0 X102.052 I2.052 J1.2686
G1 X129.8108 Y143.6329
G3 X100.0 Y161.6319 I-14.8108 J9.1562
G3 X70.1892 Y143.6329 I-15.0 J-8.8428
G1 X97.948 Y98.7314
G1 F300.0 X98.6497 Y99.1652
G3 F800.0 X101.3503 I1.3503 J0.8348
G1 X129.109 Y144.0667
G3 X100.0 Y159.8704 I-14.109 J8.7224
G3 X70.891 Y144.0667 I-15.0 J-7.0813
G1 X98.6497 Y99.1652
G0 X97.948 Y98.7314
G1 F300.0 Z4.8
G3 F800.0 X102.052 I2.052 J1.2686
G1 X129.8108 Y143.6329
G3 X100.0 Y161.6319 I-14.8108 J9.1562
G3 X70.1892 Y143.6329 I-15.0 J-8.8428
G1 X97.948 Y98.7314
G1 F300.0 X98.6497 Y99.1652
G3 F800.0 X101.3503 I1.3503 J0.8348
G1 X129.109 Y144.0667
G3 X100.0 Y159.8704 I-14.109 J8.7224
G3 X70.891 Y144.0667 I-15.0 J-7.0813
G1 X98.6497 Y99.1652
G0 X97.948 Y98.7314
G1 F300.0 Z4.4
G3 F800.0 X102.052 I2.052 J1.2686
G1 X129.8108 Y143.6329
G3 X100.0 Y161.6319 I-14.8108 J9.1562
G3 X70.1892 Y143.6329 I-15.0 J-8.8428
G1 X97.948 Y98.7314
G1 F300.0 X98.6497 Y99.1652
G3 F800.0 X101.3503 I1.3503 J0.8348
G1 X129.109 Y144.0667
G3 X100.0 Y159.8704 I-14.109 J8.7224
G3 X70.891 Y144.0667 I-15.0 J-7.0813
G1 X98.6497 Y99.1652
G0 X97.948 Y98.7314
G1 F300.0 Z4.0
G3 F800.0 X102.052 I2.052 J1.2686
G1 X129.8108 Y143.6329
G3 X100.0 Y161.6319 I-14.8108 J9.1562
G3 X70.1892 Y143.6329 I-15.0 J-8.8428
G1 X97.948 Y98.7314
G1 F300.0 X98.6497 Y99.1652
G3 F800.0 X101.3503 I1.3503 J0.8348
G1 X129.109 Y144.0667
G3 X100.0 Y159.8704 I-14.109 J8.7224
G3 X70.891 Y144.0667 I-15.0 J-7.0813
G1 X98.6497 Y99.1652
G0 X97.948 Y98.7314
G1 F300.0 Z3.6
G3 F800.0 X102.052 I2.052 J1.2686
G1 X129.8108 Y143.6329
G3 X100.0 Y161.6319 I-14.8108 J9.1562
G3 X70.1892 Y143.6329 I-15.0 J-8.8428
G1 X97.948 Y98.7314
G1 F300.0 X98.6497 Y99.1652
G3 F800.0 X101.3503 I1.3503 J0.8348
G1 X129.109 Y144.0667
G3 X100.0 Y159.8704 I-14.109 J8.7224
G3 X70.891 Y144.0667 I-15.0 J-7.0813
G1 X98.6497 Y99.1652
G0 X97.948 Y98.7314
G1 F300.0 Z3.2
G3 F800.0 X102.052 I2.052 J1.2686
G1 X129.8108 Y143.6329
G3 X100.0 Y161.6319 I-14.8108 J9.1562
G3 X70.1892 Y143.6329 I-15.0 J-8.8428
G1 X97.948 Y98.7314
G1 F300.0 X98.6497 Y99.1652
G3 F800.0 X101.3503 I1.3503 J0.8348
G1 X129.109 Y144.0667
G3 X100.0 Y159.8704 I-14.109 J8.7224
G3 X70.891 Y144.0667 I-15.0 J-7.0813
G1 X98.6497 Y99.1652
G0 X97.948 Y98.7314
G1 F300.0 Z2.8
G3 F800.0 X102.052 I2.052 J1.2686
G1 X129.8108 Y143.6329
G3 X100.0 Y161.6319 I-14.8108 J9.1562
G3 X70.1892 Y143.6329 I-15.0 J-8.8428
G1 X97.948 Y98.7314
G1 F300.0 X98.6497 Y99.1652
G3 F800.0 X101.3503 I1.3503 J0.8348
G1 X129.109 Y144.0667
G3 X100.0 Y159.8704 I-14.109 J8.7224
G3 X70.891 Y144.0667 I-15.0 J-7.0813
G1 X98.6497 Y99.1652
G1 F300.0 X97.948 Y98.7314
G1 Z2.4
G3 F800.0 X102.052 I2.052 J1.2686
G1 X129.8108 Y143.6329
G3 X100.0 Y161.6319 I-14.8108 J9.1562
G3 X70.1892 Y143.6329 I-15.0 J-8.8428
G1 X97.948 Y98.7314
G1 F300.0 X98.6497 Y99.1652
G3 F800.0 X101.3503 I1.3503 J0.8348
G1 X129.109 Y144.0667
G3 X100.0 Y159.8704 I-14.109 J8.7224
G3 X70.891 Y144.0667 I-15.0 J-7.0813
G1 X98.6497 Y99.1652
G1 F300.0 X97.948 Y98.7314
G1 Z2.0
G3 F800.0 X102.052 I2.052 J1.2686
G1 X128.9889 Y142.3034
G1 X129.7807 Y143.5842
G1 X129.8108 Y143.6329
G3 X131.2063 Y146.4212 I-14.8108 J9.1562
G3 X131.6981 Y147.8528 I-16.2063 J6.3679
G3 X100.0 Y161.6319 I-16.6981 J4.9363
G3 X68.3019 Y147.8528 I-15.0 J-8.8428
G3 X68.7937 Y146.4212 I16.6981 J4.9363
G3 X70.1892 Y143.6329 I16.2063 J6.3679
G1 X70.2193 Y143.5842
G1 X71.0111 Y142.3034
G1 X97.948 Y98.7314
G1 F300.0 X98.6497 Y99.1652
G3 F800.0 X101.3503 I1.3503 J0.8348
G1 X128.2488 Y142.6753
G1 X129.0407 Y143.9561
G1 X129.109 Y144.0667
G3 X130.4659 Y146.7933 I-14.109 J8.7224
G3 X130.9485 Y148.2295 I-15.4659 J5.9959
G3 X100.0 Y159.8704 I-15.9485 J4.5596
G3 X69.0515 Y148.2295 I-15.0 J-7.0813
G3 X69.5341 Y146.7933 I15.9485 J4.5596
G3 X70.891 Y144.0667 I15.4659 J5.9959
G1 X70.9593 Y143.9561
G1 X71.7512 Y142.6753
G1 X98.6497 Y99.1652
G1 F300.0 X97.948 Y98.7314
G1 Z1.6
G3 F800.0 X102.052 I2.052 J1.2686
G1 X128.9889 Y142.3034
G1 X129.7807 Y143.5842 Z2.0
G1 X129.8108 Y143.6329
G3 X131.2063 Y146.4212 I-14.8108 J9.1562
G3 X131.6981 Y147.8528 Z1.6 I-16.2063 J6.3679
G3 X100.0 Y161.6319 I-16.6981 J4.9363
G3 X68.3019 Y147.8528 I-15.0 J-8.8428
G3 X68.7937 Y146.4212 Z2.0 I16.6981 J4.9363
G3 X70.1892 Y143.6329 I16.2063 J6.3679
G1 X70.2193 Y143.5842
G1 X71.0111 Y142.3034 Z1.6
G1 X97.948 Y98.7314
G1 F300.0 X98.6497 Y99.1652
G3 F800.0 X101.3503 I1.3503 J0.8348
G1 X128.2488 Y142.6753
G1 X129.0407 Y143.9561 Z2.0
G1 X129.109 Y144.0667
G3 X130.4659 Y146.7933 I-14.109 J8.7224
G3 X130.9485 Y148.2295 Z1.6 I-15.4659 J5.9959
G3 X100.0 Y159.8704 I-15.9485 J4.5596
G3 X69.0515 Y148.2295 I-15.0 J-7.0813
G3 X69.5341 Y146.7933 Z2.0 I15.9485 J4.5596
G3 X70.891 Y144.0667 I15.4659 J5.9959
G1 X70.9593 Y143.9561
G1 X71.7512 Y142.6753 Z1.6
G1 X98.6497 Y99.1652
G1 F300.0 X97.948 Y98.7314
G1 Z1.2
G3 F800.0 X102.052 I2.052 J1.2686
G1 X128.9889 Y142.3034
G1 X129.7807 Y143.5842 Z2.0
G1 X129.8108 Y143.6329
G3 X131.2063 Y146.4212 I-14.8108 J9.1562
G3 X131.6981 Y147.8528 Z1.2 I-16.2063 J6.3679
G3 X100.0 Y161.6319 I-16.6981 J4.9363
G3 X68.3019 Y147.8528 I-15.0 J-8.8428
G3 X68.7937 Y146.4212 Z2.0 I16.6981 J4.9363
G3 X70.1892 Y143.6329 I16.2063 J6.3679
G1 X70.2193 Y143.5842
G1 X71.0111 Y142.3034 Z1.2
G1 X97.948 Y98.7314
G1 F300.0 X98.6497 Y99.1652
G3 F800.0 X101.3503 I1.3503 J0.8348
G1 X128.2488 Y142.6753
G1 X129.0407 Y143.9561 Z2.0
G1 X129.109 Y144.0667
G3 X130.4659 Y146.7933 I-14.109 J8.7224
G3 X130.9485 Y148.2295 Z1.2 I-15.4659 J5.9959
G3 X100.0 Y159.8704 I-15.9485 J4.5596
G3 X69.0515 Y148.2295 I-15.0 J-7.0813
G3 X69.5341 Y146.7933 Z2.0 I15.9485 J4.5596
G3 X70.891 Y144.0667 I15.4659 J5.9959
G1 X70.9593 Y143.9561
G1 X71.7512 Y142.6753 Z1.2
G1 X98.6497 Y99.1652
G1 F300.0 X97.948 Y98.7314
G1 Z0.8
G3 F800.0 X102.052 I2.052 J1.2686
G1 X128.9889 Y142.3034
G1 X129.7807 Y143.5842 Z2.0
G1 X129.8108 Y143.6329
G3 X131.2063 Y146.4212 I-14.8108 J9.1562
G3 X131.6981 Y147.8528 Z0.8 I-16.2063 J6.3679
G3 X100.0 Y161.6319 I-16.6981 J4.9363
G3 X68.3019 Y147.8528 I-15.0 J-8.8428
G3 X68.7937 Y146.4212 Z2.0 I16.6981 J4.9363
G3 X70.1892 Y143.6329 I16.2063 J6.3679
G1 X70.2193 Y143.5842
G1 X71.0111 Y142.3034 Z0.8
G1 X97.948 Y98.7314
G1 F300.0 X98.6497 Y99.1652
G3 F800.0 X101.3503 I1.3503 J0.8348
G1 X128.2488 Y142.6753
G1 X129.0407 Y143.9561 Z2.0
G1 X129.109 Y144.0667
G3 X130.4659 Y146.7933 I-14.109 J8.7224
G3 X130.9485 Y148.2295 Z0.8 I-15.4659 J5.9959
G3 X100.0 Y159.8704 I-15.9485 J4.5596
G3 X69.0515 Y148.2295 I-15.0 J-7.0813
G3 X69.5341 Y146.7933 Z2.0 I15.9485 J4.5596
G3 X70.891 Y144.0667 I15.4659 J5.9959
G1 X70.9593 Y143.9561
G1 X71.7512 Y142.6753 Z0.8
G1 X98.6497 Y99.1652
G1 F300.0 X97.948 Y98.7314
G1 Z0.4
G3 F800.0 X102.052 I2.052 J1.2686
G1 X128.9889 Y142.3034
G1 X129.7807 Y143.5842 Z2.0
G1 X129.8108 Y143.6329
G3 X131.2063 Y146.4212 I-14.8108 J9.1562
G3 X131.6981 Y147.8528 Z0.4 I-16.2063 J6.3679
G3 X100.0 Y161.6319 I-16.6981 J4.9363
G3 X68.3019 Y147.8528 I-15.0 J-8.8428
G3 X68.7937 Y146.4212 Z2.0 I16.6981 J4.9363
G3 X70.1892 Y143.6329 I16.2063 J6.3679
G1 X70.2193 Y143.5842
G1 X71.0111 Y142.3034 Z0.4
G1 X97.948 Y98.7314
G1 F300.0 X98.6497 Y99.1652
G3 F800.0 X101.3503 I1.3503 J0.8348
G1 X128.2488 Y142.6753
G1 X129.0407 Y143.9561 Z2.0
G1 X129.109 Y144.0667
G3 X130.4659 Y146.7933 I-14.109 J8.7224
G3 X130.9485 Y148.2295 Z0.4 I-15.4659 J5.9959
G3 X100.0 Y159.8704 I-15.9485 J4.5596
G3 X69.0515 Y148.2295 I-15.0 J-7.0813
G3 X69.5341 Y146.7933 Z2.0 I15.9485 J4.5596
G3 X70.891 Y144.0667 I15.4659 J5.9959
G1 X70.9593 Y143.9561
G1 X71.7512 Y142.6753 Z0.4
G1 X98.6497 Y99.1652
G1 F300.0 X97.948 Y98.7314
G1 Z0.0
G3 F800.0 X102.052 I2.052 J1.2686
G1 X128.9889 Y142.3034
G1 X129.7807 Y143.5842 Z2.0
G1 X129.8108 Y143.6329
G3 X131.2063 Y146.4212 I-14.8108 J9.1562
G3 X131.6981 Y147.8528 Z0.0 I-16.2063 J6.3679
G3 X100.0 Y161.6319 I-16.6981 J4.9363
G3 X68.3019 Y147.8528 I-15.0 J-8.8428
G3 X68.7937 Y146.4212 Z2.0 I16.6981 J4.9363
G3 X70.1892 Y143.6329 I16.2063 J6.3679
G1 X70.2193 Y143.5842
G1 X71.0111 Y142.3034 Z0.0
G1 X97.948 Y98.7314
G1 F300.0 X98.6497 Y99.1652
G3 F800.0 X101.3503 I1.3503 J0.8348
G1 X128.2488 Y142.6753
G1 X129.0407 Y143.9561 Z2.0
G1 X129.109 Y144.0667
G3 X130.4659 Y146.7933 I-14.109 J8.7224
G3 X130.9485 Y148.2295 Z0.0 I-15.4659 J5.9959
G3 X100.0 Y159.8704 I-15.9485 J4.5596
G3 X69.0515 Y148.2295 I-15.0 J-7.0813
G3 X69.5341 Y146.7933 Z2.0 I15.9485 J4.5596
G3 X70.891 Y144.0667 I15.4659 J5.9959
G1 X70.9593 Y143.9561
G1 X71.7512 Y142.6753 Z0.0
G1 X98.6497 Y99.1652
G0 Z3.0
M5
M30
