( Made using CamBam - http://www.cambam.co.uk )
( Lamp_Center 12/14/2017 6:25:59 PM )
( T0 : 3.175 )
G21 G90 G64 G40
G0 Z18.0
( T0 : 3.175 )
T0 M6
( Inside )
G17
M3 S1000
G0 X197.6885 Y150.0
G0 Z13.75
G1 F300.0 Z11.75
G2 F500.0 X126.1558 Y108.7005 I-47.6885 J0.0
G2 Y191.2995 I23.8443 J41.2995
G2 X197.6885 Y150.0 I23.8443 J-41.2995
G1 F300.0 Z10.75
G2 F500.0 X126.1558 Y108.7005 I-47.6885 J0.0
G2 Y191.2995 I23.8443 J41.2995
G2 X197.6885 Y150.0 I23.8443 J-41.2995
G1 F300.0 Z9.75
G2 F500.0 X126.1558 Y108.7005 I-47.6885 J0.0
G2 Y191.2995 I23.8443 J41.2995
G2 X197.6885 Y150.0 I23.8443 J-41.2995
G1 F300.0 Z8.75
G2 F500.0 X126.1558 Y108.7005 I-47.6885 J0.0
G2 Y191.2995 I23.8443 J41.2995
G2 X197.6885 Y150.0 I23.8443 J-41.2995
G1 F300.0 Z7.75
G2 F500.0 X126.1558 Y108.7005 I-47.6885 J0.0
G2 Y191.2995 I23.8443 J41.2995
G2 X197.6885 Y150.0 I23.8443 J-41.2995
G1 F300.0 Z6.75
G2 F500.0 X126.1558 Y108.7005 I-47.6885 J0.0
G2 Y191.2995 I23.8443 J41.2995
G2 X197.6885 Y150.0 I23.8443 J-41.2995
G1 F300.0 Z5.75
G2 F500.0 X126.1558 Y108.7005 I-47.6885 J0.0
G2 Y191.2995 I23.8443 J41.2995
G2 X197.6885 Y150.0 I23.8443 J-41.2995
G1 F300.0 Z4.75
G2 F500.0 X126.1558 Y108.7005 I-47.6885 J0.0
G2 Y191.2995 I23.8443 J41.2995
G2 X197.6885 Y150.0 I23.8443 J-41.2995
G1 F300.0 Z3.75
G2 F500.0 X126.1558 Y108.7005 I-47.6885 J0.0
G2 Y191.2995 I23.8443 J41.2995
G2 X197.6885 Y150.0 I23.8443 J-41.2995
G1 F300.0 Z2.75
G2 F500.0 X126.1558 Y108.7005 I-47.6885 J0.0
G2 Y191.2995 I23.8443 J41.2995
G2 X197.6885 Y150.0 I23.8443 J-41.2995
G1 F300.0 Z1.75
G2 F500.0 X126.1558 Y108.7005 I-47.6885 J0.0
G2 Y191.2995 I23.8443 J41.2995
G2 X197.6885 Y150.0 I23.8443 J-41.2995
G1 F300.0 Z0.75
G2 F500.0 X126.1558 Y108.7005 I-47.6885 J0.0
G2 Y191.2995 I23.8443 J41.2995
G2 X197.6885 Y150.0 I23.8443 J-41.2995
G1 F300.0 Z-0.25
G2 F500.0 X126.1558 Y108.7005 I-47.6885 J0.0
G2 Y191.2995 I23.8443 J41.2995
G2 X197.6885 Y150.0 I23.8443 J-41.2995
G1 F300.0 Z-0.8
G2 F500.0 X126.1558 Y108.7005 I-47.6885 J0.0
G2 Y191.2995 I23.8443 J41.2995
G2 X197.6885 Y150.0 I23.8443 J-41.2995
G0 Z18.0
M5
M30
