( Made using CamBam - http://www.cambam.co.uk )
( Lamp_Center 12/14/2017 6:26:03 PM )
( T0 : 3.175 )
G21 G90 G64 G40
G0 Z18.0
( T0 : 3.175 )
T0 M6
( Outside )
G17
M3 S1000
G0 X219.9135 Y150.0
G0 Z13.75
G1 F300.0 Z11.75
G3 F800.0 X115.0433 Y210.5469 I-69.9135 J0.0
G3 Y89.4531 I34.9568 J-60.5469
G3 X219.9135 Y150.0 I34.9568 J60.5469
G1 F300.0 Z10.75
G3 F800.0 X115.0433 Y210.5469 I-69.9135 J0.0
G3 Y89.4531 I34.9568 J-60.5469
G3 X219.9135 Y150.0 I34.9568 J60.5469
G1 F300.0 Z9.75
G3 F800.0 X115.0433 Y210.5469 I-69.9135 J0.0
G3 Y89.4531 I34.9568 J-60.5469
G3 X219.9135 Y150.0 I34.9568 J60.5469
G1 F300.0 Z8.75
G3 F800.0 X115.0433 Y210.5469 I-69.9135 J0.0
G3 Y89.4531 I34.9568 J-60.5469
G3 X219.9135 Y150.0 I34.9568 J60.5469
G1 F300.0 Z7.75
G3 F800.0 X115.0433 Y210.5469 I-69.9135 J0.0
G3 Y89.4531 I34.9568 J-60.5469
G3 X219.9135 Y150.0 I34.9568 J60.5469
G1 F300.0 Z6.75
G3 F800.0 X115.0433 Y210.5469 I-69.9135 J0.0
G3 Y89.4531 I34.9568 J-60.5469
G3 X219.9135 Y150.0 I34.9568 J60.5469
G1 F300.0 Z5.75
G3 F800.0 X115.0433 Y210.5469 I-69.9135 J0.0
G3 Y89.4531 I34.9568 J-60.5469
G3 X219.9135 Y150.0 I34.9568 J60.5469
G1 F300.0 Z4.75
G3 F800.0 X115.0433 Y210.5469 I-69.9135 J0.0
G3 Y89.4531 I34.9568 J-60.5469
G3 X219.9135 Y150.0 I34.9568 J60.5469
G1 F300.0 Z3.75
G3 F800.0 X115.0433 Y210.5469 I-69.9135 J0.0
G3 Y89.4531 I34.9568 J-60.5469
G3 X219.9135 Y150.0 I34.9568 J60.5469
G1 F300.0 Z2.75
G3 F800.0 X115.0433 Y210.5469 I-69.9135 J0.0
G3 Y89.4531 I34.9568 J-60.5469
G3 X219.9135 Y150.0 I34.9568 J60.5469
G1 F300.0 Z1.75
G3 F800.0 X201.5713 Y197.2049 I-69.9135 J0.0
G3 X200.5461 Y198.301 Z2.2 I-51.5713 J-47.2049
G3 X198.301 Y200.5461 I-50.5461 J-48.301
G3 X197.2049 Y201.5713 Z1.75 I-48.301 J-50.5461
G3 X115.0433 Y210.5469 I-47.2049 J-51.5713
G3 X102.7951 Y201.5713 I34.9568 J-60.5469
G3 X101.699 Y200.5461 Z2.2 I47.2049 J-51.5713
G3 X99.4539 Y198.301 I48.301 J-50.5461
G3 X98.4287 Y197.2049 Z1.75 I50.5461 J-48.301
G3 Y102.7951 I51.5713 J-47.2049
G3 X99.4539 Y101.699 Z2.2 I51.5713 J47.2049
G3 X101.699 Y99.4539 I50.5461 J48.301
G3 X102.7951 Y98.4287 Z1.75 I48.301 J50.5461
G3 X115.0433 Y89.4531 I47.2049 J51.5713
G3 X197.2049 Y98.4287 I34.9568 J60.5469
G3 X198.301 Y99.4539 Z2.2 I-47.2049 J51.5713
G3 X200.5461 Y101.699 I-48.301 J50.5461
G3 X201.5713 Y102.7951 Z1.75 I-50.5461 J48.301
G3 X219.9135 Y150.0 I-51.5713 J47.2049
G1 F300.0 Z0.75
G3 F800.0 X201.5713 Y197.2049 I-69.9135 J0.0
G3 X200.5461 Y198.301 Z2.2 I-51.5713 J-47.2049
G3 X198.301 Y200.5461 I-50.5461 J-48.301
G3 X197.2049 Y201.5713 Z0.75 I-48.301 J-50.5461
G3 X115.0433 Y210.5469 I-47.2049 J-51.5713
G3 X102.7951 Y201.5713 I34.9568 J-60.5469
G3 X101.699 Y200.5461 Z2.2 I47.2049 J-51.5713
G3 X99.4539 Y198.301 I48.301 J-50.5461
G3 X98.4287 Y197.2049 Z0.75 I50.5461 J-48.301
G3 Y102.7951 I51.5713 J-47.2049
G3 X99.4539 Y101.699 Z2.2 I51.5713 J47.2049
G3 X101.699 Y99.4539 I50.5461 J48.301
G3 X102.7951 Y98.4287 Z0.75 I48.301 J50.5461
G3 X115.0433 Y89.4531 I47.2049 J51.5713
G3 X197.2049 Y98.4287 I34.9568 J60.5469
G3 X198.301 Y99.4539 Z2.2 I-47.2049 J51.5713
G3 X200.5461 Y101.699 I-48.301 J50.5461
G3 X201.5713 Y102.7951 Z0.75 I-50.5461 J48.301
G3 X219.9135 Y150.0 I-51.5713 J47.2049
G1 F300.0 Z-0.25
G3 F800.0 X201.5713 Y197.2049 I-69.9135 J0.0
G3 X200.5461 Y198.301 Z2.2 I-51.5713 J-47.2049
G3 X198.301 Y200.5461 I-50.5461 J-48.301
G3 X197.2049 Y201.5713 Z-0.25 I-48.301 J-50.5461
G3 X115.0433 Y210.5469 I-47.2049 J-51.5713
G3 X102.7951 Y201.5713 I34.9568 J-60.5469
G3 X101.699 Y200.5461 Z2.2 I47.2049 J-51.5713
G3 X99.4539 Y198.301 I48.301 J-50.5461
G3 X98.4287 Y197.2049 Z-0.25 I50.5461 J-48.301
G3 Y102.7951 I51.5713 J-47.2049
G3 X99.4539 Y101.699 Z2.2 I51.5713 J47.2049
G3 X101.699 Y99.4539 I50.5461 J48.301
G3 X102.7951 Y98.4287 Z-0.25 I48.301 J50.5461
G3 X115.0433 Y89.4531 I47.2049 J51.5713
G3 X197.2049 Y98.4287 I34.9568 J60.5469
G3 X198.301 Y99.4539 Z2.2 I-47.2049 J51.5713
G3 X200.5461 Y101.699 I-48.301 J50.5461
G3 X201.5713 Y102.7951 Z-0.25 I-50.5461 J48.301
G3 X219.9135 Y150.0 I-51.5713 J47.2049
G1 F300.0 Z-0.8
G3 F800.0 X201.5713 Y197.2049 I-69.9135 J0.0
G3 X200.5461 Y198.301 Z2.2 I-51.5713 J-47.2049
G3 X198.301 Y200.5461 I-50.5461 J-48.301
G3 X197.2049 Y201.5713 Z-0.8 I-48.301 J-50.5461
G3 X115.0433 Y210.5469 I-47.2049 J-51.5713
G3 X102.7951 Y201.5713 I34.9568 J-60.5469
G3 X101.699 Y200.5461 Z2.2 I47.2049 J-51.5713
G3 X99.4539 Y198.301 I48.301 J-50.5461
G3 X98.4287 Y197.2049 Z-0.8 I50.5461 J-48.301
G3 Y102.7951 I51.5713 J-47.2049
G3 X99.4539 Y101.699 Z2.2 I51.5713 J47.2049
G3 X101.699 Y99.4539 I50.5461 J48.301
G3 X102.7951 Y98.4287 Z-0.8 I48.301 J50.5461
G3 X115.0433 Y89.4531 I47.2049 J51.5713
G3 X197.2049 Y98.4287 I34.9568 J60.5469
G3 X198.301 Y99.4539 Z2.2 I-47.2049 J51.5713
G3 X200.5461 Y101.699 I-48.301 J50.5461
G3 X201.5713 Y102.7951 Z-0.8 I-50.5461 J48.301
G3 X219.9135 Y150.0 I-51.5713 J47.2049
G0 Z18.0
M5
M30
