( Made using CamBam - http://www.cambam.co.uk )
( Heart._solidSLDPRT 11/26/2017 1:24:28 PM )
( T10 : 0.125 )
G21 G90 G64 G40
G0 Z8.0
( T10 : 0.125 )
T10 M6
( Engrave1 )
G17
M3 S1000
G0 X145.5947 Y79.4824
G0 Z7.0
G1 F300.0 Z5.8
G3 F800.0 X145.3799 Y79.1211 I2.9413 J-1.9934
G2 X144.6621 Y78.877 I-1.0937 J2.0381
G1 X144.5254 Y78.7695
G1 X144.5547 Y78.7012
G1 X144.5254
G1 Y78.5938
G2 X144.3233 Y78.2962 I-1.8243 J1.0217
G2 X144.0957 Y78.0176 I-6.9793 J5.4688
G1 Y77.876
G3 X143.7344 Y77.7002 I6.3105 J-13.4307
G1 X143.666 Y77.6221
G1 X143.627 Y77.4072
G1 X143.666
G1 X143.7051 Y77.2021
G2 X143.5586 Y76.7725 I-3.2121 J0.8552
G1 X143.4512 Y76.7041
G1 X143.2754 Y76.2354
G1 X143.3828 Y76.167
G1 X143.8125
G3 X144.2324 Y76.3037 I-2.6739 J8.9259
G1 X144.291 Y76.4502
G1 X144.2324 Y76.5967
G1 X144.1641 Y76.626
G1 X144.1348 Y76.7725
G1 X144.5547 Y76.8799
G1 X144.7305 Y76.8115
G1 X144.916 Y76.626
G1 Y76.4111
G2 X144.877 Y76.2744 I-4.3327 J1.164
G1 X144.6328 Y76.2354
G1 X144.5547 Y76.167
G1 X144.4863 Y76.0205
G3 X143.6937 Y75.8584 I3.6877 J-20.0454
G3 X143.3009 Y75.7595 I1.8687 J-8.2508
G3 X142.9189 Y75.625 I0.6315 J-2.4039
G1 X142.8408 Y75.4492
G3 X142.9482 Y75.1953 I1.2384 J0.3743
G1 X142.8408 Y75.0586
G1 X142.8115 Y74.4922
G3 X142.701 Y74.3644 I0.3615 J-0.4243
G3 X142.665 Y74.1992 I0.2011 J-0.1303
G3 X142.4977 Y73.7971 I1.1078 J-0.6968
G3 X142.4502 Y73.3643 I1.8152 J-0.4184
G1 Y73.2373
G1 X142.4893 Y73.1982
G1 X142.4502 Y73.1299
G1 X142.4893 Y73.0908
G1 X142.5186 Y72.8467
G3 X142.7758 Y72.9701 I-0.6378 J1.6596
G3 X143.0215 Y73.1152 I-3.2902 J5.8488
G2 X143.2668 Y73.249 I1.5792 J-2.6037
G2 X143.5293 Y73.3447 I0.5395 J-1.0719
G2 X143.9492 Y73.667 I10.9094 J-13.7806
G1 Y73.6963
G1 X144.0273 Y73.7744
G1 X144.0957 Y73.9941
G1 X144.2324 Y74.1699
G1 X144.3789 Y74.1309
G1 X144.5254 Y74.2383
G1 X144.7305 Y74.0234
G2 X144.6328 Y73.6963 I-0.6262 J0.0088
G1 X144.3398
G1 X144.1641 Y73.5205
G1 X144.0957 Y73.4912
G1 X144.0273 Y73.3057
G3 X143.5977 Y73.0225 I11.4146 J-17.7863
G2 X142.8115 Y72.5244 I-4.0922 J5.5898
G1 Y72.4854
G3 X142.2744 Y72.3486 I0.0191 J-1.1985
G1 X141.9131 Y72.4658
G1 X141.708 Y72.6318
G1 X141.6689 Y72.9932
G2 X141.3174 Y73.1982 I0.8043 J1.7826
G1 Y73.3447
G1 X141.2393 Y73.4912
G2 X141.3816 Y74.0274 I2.0942 J-0.2689
G2 X141.7373 Y74.4531 I0.8092 J-0.3146
G1 X141.7764 Y74.5215
G2 X141.8141 Y74.7569 I0.6808 J0.0117
G2 X141.9521 Y74.9512 I0.4144 J-0.1483
G1 X141.8838 Y75.127
G1 X141.9521 Y75.4492
G1 X142.2061 Y75.6641
G1 Y75.8398
G1 X142.0938 Y75.9131
G2 X141.5469 Y76.0059 I5.0464 J31.4056
G2 X141.0146 Y76.167 I0.3361 J2.0696
G1 X140.9072
G3 X140.4971 Y75.6006 I3.4755 J-2.9484
G2 X140.126 Y75.0195 I-96.3182 J61.1051
G3 X139.916 Y74.7363 I7.1116 J-5.4918
G3 X139.6466 Y74.4934 I1.8838 J-2.3594
G3 X139.3887 Y74.2383 I18.4202 J-18.8864
G1 Y74.1699
G1 X139.2813 Y74.1016
G1 X139.2129 Y73.9551
G1 X139.0225 Y73.8037
G1 X138.9541
G2 X138.7139 Y73.5241 I-1.0859 J0.6898
G2 X138.417 Y73.3057 I-1.4027 J1.5957
G3 X138.1338 Y73.1689 I0.6564 J-1.7215
G3 X137.7822 Y73.0225 I0.1766 J-0.919
G1 X137.6748 Y72.8857
G1 X137.4209 Y72.7393
G1 X137.0693 Y72.8076
G3 X136.7031 Y73.0225 I-0.7935 J-0.933
G1 X136.6738 Y73.0615
G1 X136.3125 Y73.1982
G1 Y73.3838
G1 X136.2441 Y73.4521
G2 X136.2246 Y73.6475 I1.6946 J0.2681
G2 X136.3433 Y74.1894 I1.6984 J-0.0881
G2 X136.5664 Y74.6973 I4.6353 J-1.7329
G1 X136.7031 Y74.7754
G1 X136.8496 Y74.9512
G1 Y75.0977
G1 X137.0986 Y75.3027
G1 X137.1377
G1 X137.3135 Y75.4883
G1 X137.4209 Y75.5176
G1 X137.46 Y75.5957
G3 X137.9971 Y75.8789 I-6.5429 J13.0599
G1 X138.1338 Y75.8398
G2 X138.4072 Y75.0391 I-1.0963 J-0.8214
G2 X138.3877 Y74.8047 I-2.1934 J0.0648
G1 X138.3096 Y74.6973
G1 X138.2803 Y74.4141
G1 X138.2021 Y74.3066
G1 X137.9971 Y74.2773
G1 X137.8896 Y74.3848
G1 X137.8115 Y74.668
G1 X137.6357 Y74.7363
G3 X137.6553 Y75.0195 I-1.5969 J0.2524
G3 X137.6064 Y75.3418 I-1.4188 J-0.0501
G1 X137.46 Y75.3027
G1 X137.1377 Y75.0586
G1 X137.0693 Y74.9512
G1 Y74.8047
G1 X136.918 Y74.7363
G1 Y74.5605
G3 X136.7031 Y74.292 I0.5969 J-0.6977
G3 X136.5273 Y73.9941 I21.3182 J-12.782
G1 X136.498 Y73.7744
G1 X136.6348 Y73.3838
G1 X136.8496 Y73.1982
G1 X137.2451 Y73.0908
G2 X137.6748 Y73.3447 I3.3665 J-5.2067
G1 Y73.3838
G3 X138.1791 Y73.7082 I-1.1079 J2.2763
G3 X138.6318 Y74.1016 I-4.5702 J5.7173
G2 X138.8857 Y74.3457 I2.5269 J-2.3739
G3 X139.1543 Y74.4922 I-3.1564 J6.1061
G3 X139.4759 Y74.7855 I-1.9794 J2.4929
G3 X139.7793 Y75.0977 I-13.8447 J13.7617
G1 X139.8477 Y75.2734
G1 X139.9941 Y75.3809
G1 X140.1699 Y75.7715
G1 X140.3457 Y75.8789
G2 X140.5605 Y76.2061 I1.4895 J-0.744
G1 X140.5215 Y76.2744
G1 X140.1699
G2 X139.9916 Y76.1714 I-0.3732 J0.44
G2 X139.7939 Y76.1133 I-0.4863 J1.2895
G3 X139.5913 Y76.0621 I0.566 J-2.6677
G3 X139.3984 Y75.9814 I0.2064 J-0.7644
G1 X139.3887 Y75.8008
G1 X139.457 Y75.7715
G1 X139.7793
G1 X139.8477 Y75.6641
G1 X139.8086 Y75.5957
G3 X139.2422 Y75.5176 I0.4181 J-5.1237
G1 X139.1055 Y75.5566
G3 X139.0197 Y75.6422 I-0.646 J-0.5618
G3 X138.915 Y75.7031 I-0.1914 J-0.2084
G1 Y75.8008
G1 X138.9932 Y75.8789
G1 X138.9541 Y75.9912
G1 X139.0225 Y76.167
G1 Y76.2744
G2 X139.3496 Y76.3037 I0.2268 J-0.6915
G1 X139.457 Y76.3818
G1 X139.6035
G1 X139.9941 Y76.5576
G2 X140.2578 Y76.5332 I-2.3278 J-26.576
G3 X140.5215 Y76.5186 I0.3046 J3.1025
G3 X140.6484 Y76.5332 I-0.0213 J0.7425
G2 X140.7754 Y76.5576 I1.1858 J-5.8237
G1 X140.9512 Y76.8408
G1 X141.1318 Y76.9482
G1 X141.415 Y77.4072
G3 X141.6581 Y77.5407 I-0.3277 J0.8846
G3 X141.874 Y77.7148 I-1.6559 J2.2744
G2 X142.3135 Y78.0957 I36.71 J-41.9138
G2 X142.9873 Y78.4473 I1.6452 J-2.3317
G1 X143.0557
G1 X143.3828 Y78.6621
G1 X143.5586
G1 X143.9199 Y78.8379
G1 X144.0566
G1 X144.0957 Y78.9453
G1 X144.2715 Y78.9844
G1 X144.3398 Y79.0527
G1 X143.9199 Y78.9844
G3 X143.7164 Y79.0204 I-0.2127 J-0.6098
G3 X143.5098 Y79.0137 I-0.0505 J-1.6341
G1 X143.168
G1 X142.9189 Y78.916
G1 X142.7725
G2 X142.393 Y78.9588 I0.0553 J2.1941
G2 X142.0205 Y79.043 I1.086 J5.6724
G3 X141.648 Y79.1271 I-1.4532 J-5.565
G3 X141.2686 Y79.1699 I-0.4348 J-2.1524
G3 X141.0195 Y79.165 I0.0558 J-9.1977
G2 X140.7754 Y79.1602 I-0.3044 J9.1165
G1 X140.7363 Y79.0918
G3 X140.3896 Y78.877 I0.6271 J-1.3991
G2 X140.0625 Y78.6621 I-1.0831 J1.2927
G1 X139.6328 Y78.7012
G1 X139.4961 Y78.623
G1 X139.457 Y78.5156
G1 X139.418
G1 X139.3496 Y78.3398
G1 X139.2813
G3 X138.9004 Y78.2861 I0.0562 J-1.7754
G2 X138.5244 Y78.2031 I-2.3296 J9.6585
G3 X137.9971 Y78.3398 I-2.6784 J-9.2458
G1 X137.9189 Y78.4473
G1 X137.8896
G2 X137.8311 Y78.9551 I3.2651 J0.634
G2 X137.8711 Y79.1911 I0.8311 J-0.0195
G2 X137.958 Y79.4141 I1.6532 J-0.5162
G1 X138.1729 Y79.4434
G1 X138.2021 Y79.5508
G2 X138.4218 Y79.6392 I0.4751 J-0.8634
G2 X138.6514 Y79.6973 I0.9502 J-3.2721
G2 X139.1348 Y79.7656 I0.5974 J-2.4814
G2 X139.7303 Y79.7091 I-0.0636 J-3.8375
G2 X140.3164 Y79.5898 I-1.4098 J-8.4262
G1 X140.4141 Y79.5215
G1 X140.7754
G1 X140.8828 Y79.5898
G2 X141.0977 Y79.873 I0.626 J-0.2518
G1 Y79.9121
G1 X141.21
G1 X141.3857 Y79.9854
G1 X141.4541 Y80.0928
G1 X141.6006
G2 X141.8789 Y80.2295 I0.455 J-0.5746
G3 X142.167 Y80.3369 I-0.4105 J1.5409
G1 Y80.376
G2 X142.4014 Y80.415 I0.1787 J-0.3497
G1 X142.4893
G1 X142.5967 Y80.3369
G1 X142.665 Y80.1611
G1 X142.626 Y80.0537
G1 X142.4502 Y79.9414
G3 X142.1768 Y80.0244 I-1.0982 J-3.1256
G3 X141.9333 Y79.9789 I0.0301 J-0.8349
G3 X141.7031 Y79.8877 I0.6551 J-1.9893
G2 X141.2393 Y79.6582 I-23.3362 J46.5853
G1 X141.0586 Y79.4824
G1 X141.0977 Y79.4434
G3 X141.3174 Y79.4824 I-0.3735 J2.7382
G2 X141.7275 Y79.4043 I-1.2691 J-7.7787
G3 X142.3197 Y79.2924 I2.9679 J14.0884
G3 X142.9189 Y79.2285 I0.7434 J4.1279
G3 X143.041 Y79.2432 I-0.0268 J0.7389
G2 X143.168 Y79.2676 I1.1858 J-5.8237
G3 X143.1617 Y79.2669 I0.0106 J-0.1207
G3 X143.1575 Y79.2663 I0.025 J-0.1983
G3 X143.152 Y79.2652 I0.0078 J-0.0552
G3 X143.4609 Y79.2578 I0.2447 J3.7532
G3 X143.6221 Y79.2871 I-0.0108 J0.5169
G2 X143.7734 Y79.3359 I0.8361 J-2.3329
G1 X144.0859
G3 X144.7891 Y79.4238 I-0.8847 J9.9337
G3 X145.1396 Y79.4795 I-3.5819 J23.7063
G3 X145.4873 Y79.5508 I-0.4858 J3.2509
G1 X145.5947 Y79.5215
G1 Y79.4824
G0 Z8.0
G0 X143.8125 Y78.4473
G0 Z7.0
G1 F300.0 Z5.8
G3 F800.0 X143.5087 Y78.3568 I0.0737 J-0.8023
G3 X143.2314 Y78.2031 I1.2896 J-2.6544
G1 X143.1191
G3 X142.5527 Y77.8369 I0.6639 J-1.6479
G3 X142.2876 Y77.7266 I0.2662 J-1.0135
G3 X142.0938 Y77.5146 I0.2311 J-0.4059
G1 X141.9863 Y77.4854
G1 Y77.4072
G3 X141.7725 Y77.2596 I0.2656 J-0.6132
G3 X141.6055 Y77.0605 I1.0601 J-1.0595
G2 X141.4378 Y76.846 I-2.1387 J1.4992
G2 X141.2344 Y76.665 I-0.7143 J0.5979
G1 X141.2051 Y76.5576
G2 X141.6099 Y76.4947 I-0.1614 J-2.3706
G2 X141.9863 Y76.333 I-0.2691 J-1.1459
G1 X142.3428 Y76.3037
G1 X142.5186 Y76.5576
G1 X142.8408 Y76.7041
G1 X142.9189 Y76.8115
G2 X142.9092 Y76.9092 I0.3585 J0.0852
G2 X143.0264 Y77.4854 I1.969 J-0.1005
G2 X143.4902 Y77.9492 I3.9982 J-3.5344
G2 X143.5474 Y78.0792 I0.3428 J-0.073
G2 X143.6318 Y78.1934 I1.0742 J-0.7067
G3 X143.8125 Y78.4473 I-1.5478 J1.2926
G0 Z8.0
G0 X140.2383 Y79.3066
G0 Z7.0
G1 F300.0 Z5.8
G1 F800.0 X140.209 Y79.375
G1 X139.7793 Y79.4141
G1 X139.6719 Y79.4824
G1 X139.1738
G3 X138.417 Y79.3359 I-0.0319 J-1.8635
G3 X138.2614 Y79.2083 I0.2759 J-0.4949
G3 X138.1338 Y79.0527 I1.5097 J-1.3686
G1 X138.0654 Y79.0137
G1 X138.0264 Y78.916
G1 X138.1338 Y78.7305
G1 X138.1729 Y78.7012
G1 X138.2021 Y78.623
G3 X138.3877 Y78.5938 I1.1171 J6.4727
G3 X138.5977 Y78.6133 I-0.0933 J2.141
G2 X138.8076 Y78.623 I0.1684 J-1.3578
G1 X138.8467 Y78.7012
G3 X139.1796 Y78.7839 I-0.6797 J3.4457
G3 X139.4961 Y78.916 I-0.4213 J1.4549
G2 X139.6719 Y79.0527 I1.4974 J-1.7438
G3 X140.2383 Y79.3066 I-0.8153 J2.5775
G0 Z8.0
G0 X148.0664 Y75.1172
G0 Z7.0
G1 F300.0 Z5.8
G1 F800.0 X148.1836 Y75.2344
G1 X148.2422 Y75.3711
G3 X148.6719 Y75.6934 I-3.1962 J4.7092
G1 Y75.7617
G1 X148.8867 Y75.8594
G3 X149.209 Y76.2256 I-1.716 J1.835
G1 Y76.3037
G1 X149.1016 Y76.4795
G3 X149.0967 Y76.5283 I-0.428 J-0.0181
G2 X149.0918 Y76.5771 I0.4258 J0.0672
G2 X149.0967 Y76.6162 I0.2177 J-0.0074
G3 X149.1016 Y76.6553 I-0.2117 J0.0463
G1 X149.1406 Y76.6943
G1 Y76.8018
G1 X149.043 Y76.9482
G2 X149.1016 Y77.3291 I2.4978 J-0.1893
G2 X149.0235 Y77.5635 I0.4296 J0.2734
G2 X149.0283 Y77.6074 I0.3135 J-0.0126
G3 X149.0332 Y77.6514 I-0.3034 J0.056
G1 X149.1016 Y77.7588
G1 Y77.9053
G3 X149.209 Y78.1152 I-0.4331 J0.354
G1 X149.2871 Y78.1934
G1 X149.3164 Y78.3008
G1 X149.3457 Y78.3301
G1 X149.4239
G1 X149.5313 Y78.4082
G1 X149.6387 Y78.4375
G1 X149.7071 Y78.5449
G1 X149.7754
G2 X149.8828 Y78.5156 I-0.7363 J-2.9113
G1 X149.9219 Y78.457
G1 X149.8828 Y78.4082
G1 X149.8145
G1 X149.668 Y78.2617
G2 X149.5313 Y77.9053 I-1.1254 J0.2272
G1 X149.5215 Y77.7393
G1 X149.4727 Y77.6318
G3 X149.5703 Y77.1729 I4.9398 J0.8111
G1 X149.5606 Y77.0459
G2 X149.6436 Y76.8359 I-0.4651 J-0.3053
G3 X149.7071 Y76.6064 I1.1664 J0.1991
G2 X150.0586 Y76.8018 I1.0544 J-1.4838
G1 X150.0977 Y76.8701
G3 X150.2194 Y76.885 I0.0355 J0.2154
G3 X150.3272 Y76.9434 I-0.2036 J0.5046
G3 X150.503 Y77.1143 I-0.3208 J0.5058
G3 X150.6872 Y77.2022 I-0.1931 J0.6416
G3 X150.8545 Y77.3193 I-1.3512 J2.1077
G1 X151.001 Y77.5537
G3 X151.0303 Y77.8662 I-1.2197 J0.272
G1 X150.9912 Y77.9053
G3 X151.001 Y78.0469 I-0.7669 J0.124
G1 X150.9522 Y78.1152
G1 X150.9424 Y78.3203
G3 X150.708 Y78.6523 I-0.9588 J-0.4281
G1 X150.6397 Y78.6914
G2 X150.3858 Y78.7207 I-0.0753 J0.4619
G1 X150.3174 Y78.6523
G3 X150.0977 Y78.584 I0.3257 J-1.4344
G1 X150.0489 Y78.6621
G2 X150.178 Y78.7714 I0.5063 J-0.4673
G2 X150.3174 Y78.8672 I2.9553 J-4.1522
G2 X150.7276 Y78.916 I0.3099 J-0.8563
G2 X150.892 Y78.8299 I-0.1092 J-0.4085
G2 X151.0303 Y78.7061 I-0.9145 J-1.1607
G2 X151.1644 Y78.5661 I-1.2541 J-1.336
G2 X151.2696 Y78.4033 I-0.4513 J-0.4069
G1 X151.4014 Y78.0664
G3 X151.3916 Y77.7588 I0.7733 J-0.1785
G2 X151.167 Y77.2217 I-3.1376 J0.9966
G3 X150.9229 Y77.0459 I0.1245 J-0.4303
G1 X150.8155
G1 X150.7471 Y76.9775
G1 X150.669
G1 X150.6397 Y76.9092
G1 X150.5615 Y76.8311
G1 Y76.8018
G1 X150.4248 Y76.6943
G1 X150.249 Y76.6553
G1 X150.0977 Y76.5381
G1 X149.9219 Y76.5479
G1 X149.8438 Y76.5088
G1 X149.7949 Y76.3818
G1 X149.8145 Y76.2256
G1 X149.7754
G1 Y76.1182
G1 X149.9512 Y75.9814
G1 X149.9903 Y75.8301
G1 X150.0293 Y75.8008
G1 Y75.6934
G1 X150.0977 Y75.5469
G1 Y75.4004
G1 X150.1709 Y75.2637
G1 Y74.9414
G1 X150.21 Y74.9023
G1 Y74.7266
G1 X150.2783 Y74.6582
G1 Y74.6191
G3 X150.3516 Y74.4482 I11.9286 J5.0111
G2 X150.4248 Y74.2773 I-13.6478 J-5.9502
G1 Y74.1602
G2 X150.5241 Y74.0128 I-0.2299 J-0.2621
G2 X150.6592 Y73.501 I-2.6218 J-0.9656
G1 X150.7764 Y73.6182
G1 X150.8155 Y73.7256
G1 X150.9229
G1 X150.9912 Y73.877
G1 X151.0694 Y73.8867
G2 X151.1963 Y74.0576 I1.9105 J-1.2866
G3 X151.3135 Y74.4434 I-0.5491 J0.3775
G1 X151.3526 Y74.4824
G2 X151.4112 Y74.7168 I0.8226 J-0.0811
G3 X151.3623 Y74.9023 I-4.687 J-1.1342
G2 X151.3135 Y75.0879 I4.4934 J1.2817
G1 X151.2061 Y75.1953
G2 X150.9912 Y75.332 I0.3738 J0.8246
G1 X150.9522 Y75.4785
G1 X151.0303 Y75.5469
G1 X150.8545
G3 X150.5322 Y75.6641 I-0.4981 J-0.8682
G2 X150.3858 Y75.8691 I1.5873 J1.2886
G1 Y75.9424
G1 X150.4932 Y76.0498
G1 X150.5322
G1 X150.6006 Y75.9814
G2 X150.9229 Y75.8691 I-0.2116 J-1.1256
G1 X151.128 Y75.9131
G1 X151.2744 Y75.8691
G1 X151.3135 Y75.8301
G1 X151.4209
G1 X151.46 Y75.8008
G1 X151.5967
G1 X151.6358 Y75.7617
G1 X151.7432
G1 X151.8115 Y75.8301
G2 X152.2754 Y75.9033 I0.3515 J-0.7208
G1 X152.4219 Y76.0107
G1 X152.4903
G1 Y76.1182
G1 X152.5293 Y76.1572
G1 X152.666
G1 X152.8516 Y76.2646
G1 X152.8809 Y76.2256
G1 X152.8516 Y76.1572
G1 X152.9199 Y76.1182
G1 X152.9981 Y75.9131
G1 X152.9492 Y75.791
G1 X152.8223 Y75.7031
G3 X152.5293 Y75.7129 I-0.1677 J-0.6306
G1 X152.4219 Y75.8008
G1 X152.3535 Y75.7617
G1 X152.2461
G1 X152.2071 Y75.7227
G1 X152.1338
G1 X152.0947 Y75.6543
G1 X151.9873 Y75.6934
G1 X151.8799 Y75.6152
G1 X151.7725 Y75.5859
G1 X151.7041 Y75.5078
G1 X151.7432 Y75.4395
G1 X151.7041 Y75.4004
G1 Y75.332
G1 X151.8506 Y75.1172
G1 X151.8799 Y74.9414
G1 X151.919 Y74.9023
G2 X151.9597 Y74.7041 I-2.2762 J-0.5708
G2 X151.9678 Y74.502 I-0.7058 J-0.1296
G1 X151.8799 Y74.3359
G1 X151.8506
G1 X151.7725 Y74.2676
G1 Y74.2285
G1 X151.7041 Y74.1992
G2 X151.6899 Y74.0751 I-0.3859 J-0.0186
G2 X151.6553 Y73.9551 I-1.6027 J0.3967
G3 X151.3037 Y73.501 I3.6305 J-3.1739
G3 X150.9121 Y73.2545 I0.3003 J-0.9114
G3 X150.6201 Y72.8955 I1.6159 J-1.6126
G1 X150.6299 Y72.7686
G1 X150.5615 Y72.6611
G1 X150.6006 Y72.583
G1 Y72.4463
G1 X150.5615 Y72.3779
G1 X150.6006 Y72.3389
G1 X150.542 Y72.2705
G1 X150.6104 Y72.2314
G3 X150.5713 Y71.9971 I0.6576 J-0.23
G2 X150.5322 Y71.7578 I-0.7171 J-0.0057
G1 X150.6592 Y71.6699
G3 X150.9295 Y71.5969 I2.584 J9.0293
G3 X151.0663 Y71.5654 I0.8029 J3.1695
G3 X151.2061 Y71.5527 I0.1069 J0.403
G1 X151.2451 Y71.5137
G1 X151.3526
G1 X151.3819 Y71.4746
G1 X151.6455
G1 X151.753 Y71.5137
G3 X152.2071 Y71.6113 I-1.2399 J6.87
G1 X152.2656 Y71.6699
G1 X152.2461 Y71.7676
G1 X152.2754 Y71.8799
G1 X152.3242 Y71.9482
G1 X152.3926 Y71.9775
G2 X152.5977 Y71.8799 I-0.0746 J-0.4208
G1 X152.666
G1 X152.7051 Y71.8408
G1 X152.7442 Y71.6992
G1 X152.7051 Y71.4746
G1 X152.627 Y71.3867
G2 X152.3047 Y71.2793 I-0.5134 J1.003
G3 X152.0264 Y71.1914 I0.2649 J-1.3236
G3 X151.6358 Y71.2695 I-1.2342 J-5.1554
G2 X151.3819 I-0.127 J3.3749
G3 X151.0791 Y71.3672 I-7.9975 J-24.2742
G3 X150.9229 Y71.377 I-0.1079 J-0.4708
G1 X150.8155 Y71.4453
G2 X150.4737 Y71.5039 I0.1445 J1.8689
G1 X150.4248 Y71.4063
G1 X150.3858 Y71.377
G2 X150.3076 Y71.1426 I-0.5843 J0.0645
G2 X149.9805 Y70.8203 I-3.454 J3.1792
G1 X149.8438 Y70.7715
G2 X149.7071 Y70.6152 I-0.9723 J0.7128
G1 X149.5313 Y70.5566
G1 X149.4824 Y70.498
G1 X149.3848 Y70.5176
G1 X149.1895 Y70.4102
G1 X148.9551
G2 X148.8477 Y70.4492 I0.0861 J0.4039
G1 X148.75 Y70.4102
G1 X148.711
G1 X148.6719 Y70.4492
G3 X148.3887 Y70.4395 I-0.0351 J-3.0932
G3 X148.1055 Y70.4785 I-0.1984 J-0.3925
G1 X148.0664 Y70.5176
G2 X147.8516 Y70.6006 I0.177 J0.7776
G3 X147.6221 Y70.6738 I-0.2816 J-0.4862
G1 X147.4756 Y70.8203
G1 X147.4561 Y71.0156
G1 X147.4268 Y71.0547
G1 Y71.1621
G1 X147.3877 Y71.1914
G1 Y71.416
G2 X147.4475 Y71.6225 I0.4372 J-0.0146
G2 X147.5733 Y71.7969 I0.8482 J-0.4795
G1 X147.6026 Y71.9092
G1 X147.7393 Y72.085
G1 X147.8467
G1 X147.8858 Y72.124
G1 X148.0127 Y72.1826
G1 X148.2129 Y72.1631
G1 X148.2422 Y72.1924
G1 X148.4571 Y72.2314
G1 X148.4961 Y72.1924
G1 X148.6426
G1 X148.6719 Y72.1631
G3 X148.8517 Y72.1374 I0.1823 J0.633
G3 X149.0332 Y72.1338 I0.1687 J3.9632
G2 X149.1211 Y72.1289 I-0.0243 J-1.2302
G3 X149.209 Y72.124 I0.1116 J1.2146
G1 X149.3457 Y72.0557
G3 X149.4434 Y72.0605 I-0.0236 J1.4502
G2 X149.541 Y72.0654 I0.1194 J-1.4091
G2 X149.624 Y72.0605 I-0.018 J-1.0138
G3 X149.7071 Y72.0557 I0.1025 J1.0351
G1 X149.9219 Y71.9092
G1 X150.0977 Y71.8799
G1 Y72.1924
G1 X150.1709 Y72.3779
G1 Y72.4854
G3 X150.1514 Y72.6025 I-0.6558 J-0.0491
G2 X150.1416 Y72.7295 I0.4686 J0.0999
G1 X150.0586 Y72.7686
G1 Y72.876
G1 X150.0293 Y72.9053
G1 X149.9512
G1 X149.8438 Y72.8369
G3 X149.4434 Y72.7881 I0.5352 J-6.0545
G1 X149.209 Y72.8369
G1 X149.0625 Y72.9443
G1 X149.0332
G1 X148.9258 Y72.876
G1 X148.75
G1 X148.711 Y72.9053
G2 X148.1739 Y73.0518 I-0.0714 J0.7963
G1 X148.0664 Y73.1885
G1 X147.9932 Y73.2275
G3 X147.8369 Y73.4033 I-0.3144 J-0.1221
G1 X147.7979 Y73.5107
G1 X147.7295
G2 X147.6709 Y73.833 I0.521 J0.2612
G2 X147.627 Y74.0381 I0.3792 J0.1885
G2 X147.6416 Y74.1602 I0.4386 J0.0093
G1 X147.6026 Y74.1992
G1 X147.6416 Y74.2285
G2 X148.0127 Y74.8926 I1.6574 J-0.4905
G3 X148.0322 Y75.0488 I-0.2454 J0.11
G1 X148.0664 Y75.1172
G0 Z8.0
G0 X148.4106 Y74.9552
G0 Z7.0
G1 F300.0 Z5.8
G3 F800.0 X148.3887 Y74.9023 I0.5402 J-0.2542
G1 Y74.7949
G1 X148.2813 Y74.6582
G3 X148.2123 Y74.3673 I10.2332 J-2.5795
G3 X148.1641 Y74.0723 I1.8996 J-0.462
G3 X148.2031 Y73.8379 I1.2161 J0.0822
G2 X148.2422 Y73.5889 I-0.8087 J-0.2544
G2 X148.3496 Y73.4033 I-0.3871 J-0.348
G1 X148.4571 Y73.374
G1 X148.5352 Y73.2666
G1 X148.6817 Y73.208
G3 X148.7451 Y73.2129 I-0.0226 J0.7093
G2 X148.8086 Y73.2178 I0.0849 J-0.6882
G1 X149.0137
G2 X149.1602 Y73.1738 I-0.0849 J-0.549
G3 X149.3164 Y73.1494 I0.1175 J0.2399
G1 X149.4141 Y73.1006
G2 X149.668 Y73.1201 I0.1793 J-0.6709
G1 X149.8438 Y73.0518
G1 X149.9219
G3 X150.1416 Y73.1885 I-1.429 J2.5415
G3 X150.1081 Y73.3575 I-1.4413 J-0.1979
G3 X150.0293 Y73.5107 I-0.3021 J-0.0584
G1 Y73.5498
G1 X149.9903 Y73.5889
G1 Y73.7646
G2 X149.7754 Y74.0918 I0.3467 J0.4618
G1 Y74.1602
G2 X149.7949 Y74.3164 I1.0611 J-0.0533
G3 X149.8145 Y74.4824 I-0.5949 J0.1541
G1 X149.7461 Y74.6191
G1 X149.7754 Y74.6582
G3 X149.6387 Y74.834 I-0.4199 J-0.1855
G1 Y74.9414
G1 X149.7071 Y75.0488
G2 X149.6237 Y75.2079 I0.625 J0.4292
G2 X149.5606 Y75.376 I2.8652 J1.171
G2 X149.5062 Y75.5467 I2.9533 J1.035
G2 X149.4727 Y75.7227 I0.7407 J0.2322
G1 X149.4239 Y75.8203
G1 Y75.9033
G1 X149.3848 Y75.9424
G2 X149.209 Y75.9033 I-0.1414 J0.2212
G3 X149.0625 Y75.7617 I0.5138 J-0.6781
G1 X148.9551 Y75.7031
G1 X148.9258 Y75.5859
G1 X148.8867
G1 Y75.5078
G2 X148.7914 Y75.4051 I-0.6666 J0.5233
G2 X148.6719 Y75.332 I-0.2298 J0.2414
G1 Y75.293
G1 X148.6426
G1 X148.5645 Y75.1953
G1 Y75.1563
G3 X148.4106 Y74.9552 I0.3863 J-0.4553
G0 Z8.0
G0 X148.6052 Y71.984
G0 Z7.0
G1 F300.0 Z5.8
G3 F800.0 X148.2503 Y71.9227 I0.1115 J-1.702
G3 X147.8467 Y71.6211 I0.1687 J-0.6467
G1 Y71.582
G1 X147.7393 Y71.5137
G1 X147.71 Y71.377
G3 X147.8284 Y71.065 I1.3829 J0.3466
G3 X148.0322 Y70.8008 I0.8389 J0.4365
G1 X148.1446 Y70.7715
G1 X148.2129 Y70.7031
G1 X148.4473
G2 X148.8379 Y70.625 I-0.0605 J-1.3179
G1 X149.0332 Y70.6641
G1 X149.1406 Y70.7324
G1 X149.209
G1 X149.3164 Y70.8398
G1 X149.5606 Y70.9473
G1 X149.5996 Y71.0156
G2 X149.9707 Y71.3477 I3.4844 J-3.5209
G3 X150.0586 Y71.6895 I-1.2625 J0.5068
G1 X150.0293
G1 X149.8828 Y71.7676
G1 X149.8145
G1 X149.7754 Y71.7969
G1 X149.7071
G1 X149.668 Y71.8408
G1 X149.5313
G1 X149.4922 Y71.8799
G3 X149.1406 Y71.9482 I-1.1601 J-5.0278
G2 X148.8867 I-0.127 J3.3749
G2 X148.8184 Y71.9678 I0.0592 J0.3366
G3 X148.75 Y71.9873 I-0.1273 J-0.3162
G3 X148.6052 Y71.984 I-0.0334 J-1.7053
G0 Z8.0
G0 X155.9177 Y73.7283
G0 Z7.0
G1 F300.0 Z5.8
G2 F800.0 X155.8897 Y73.8867 I1.3168 J0.3141
G2 X155.9718 Y74.154 I0.7626 J-0.0882
G2 X156.1143 Y74.3945 I1.7405 J-0.8682
G3 X156.3384 Y74.5615 I-1.8966 J2.779
G3 X156.5293 Y74.7656 I-0.4935 J0.653
G1 X156.793 Y74.7949
G2 X156.8791 Y74.9036 I2.1589 J-1.6215
G2 X156.9786 Y75.0 I0.3826 J-0.2952
G1 X157.1153
G1 X157.2325 Y74.9414
G1 X157.3985 Y74.6875
G1 Y74.3262
G1 X157.3008 Y74.1895
G1 X157.0957 Y74.2773
G1 X156.9786 Y74.4727
G1 X156.8321 Y74.541
G3 X156.2608 Y73.9746 I0.5257 J-1.1015
G1 X156.2217 Y73.7549
G1 X156.3975 Y73.4717
G3 X156.7763 Y73.2731 I1.364 J2.1417
G3 X157.1934 Y73.1787 I0.4539 J1.0366
G3 X157.4692 Y73.2083 I0.0129 J1.1791
G3 X157.7207 Y73.3252 I-0.1409 J0.6325
G2 X158.1114 Y73.8232 I14.6371 J-11.0778
G2 X158.2481 Y74.248 I6.2011 J-1.7614
G2 X158.3946 Y74.6484 I7.873 J-2.6534
G1 X158.4727 Y74.6875
G1 X158.5557 Y75.0
G3 X158.9073 Y75.498 I-3.5381 J2.8706
G1 X159.0049 Y75.5371
G1 X158.9756 Y75.791
G1 X159.1123 Y75.8887
G2 X159.4151 Y76.9678 I14.5097 J-3.4886
G1 X159.503 Y77.0361
G1 X159.5518 Y77.1826
G1 X159.6397 Y77.2412
G1 X159.6104 Y77.3584
G3 X159.7325 Y77.627 I-0.5821 J0.4266
G3 X159.8155 Y77.9053 I-6.5721 J2.1116
G2 X160.1768 Y78.7695 I10.2019 J-3.7575
G1 X160.0108 Y78.8184
G3 X159.4418 Y78.6718 I0.2844 J-2.2818
G3 X158.9073 Y78.4277 I1.8233 J-4.7007
G2 X158.5459 Y78.252 I-1.0486 J1.6962
G1 X158.4727 Y78.1445
G2 X158.3262 Y78.0762 I-0.551 J0.9896
G1 X158.2969
G2 X158.1163 Y77.8586 I-2.0484 J1.5166
G2 X157.8965 Y77.6807 I-0.6476 J0.5752
G1 Y77.6416
G1 X157.7989 Y77.6025
G1 X157.8282 Y77.5342
G1 X157.7403 Y77.4951
G1 X157.5254 Y77.1826
G1 X157.5059
G3 X157.4188 Y77.0091 I0.3826 J-0.3007
G3 X157.3692 Y76.8213 I1.9497 J-0.6155
G1 X157.3887 Y76.6553
G1 X157.5645 Y76.6162
G1 X157.8282 Y76.6846
G3 X158.1114 Y76.9287 I-0.8105 J1.2266
G2 X158.375 Y77.1826 I1.717 J-1.5191
G1 X158.4336 Y77.3584
G1 X158.5264 Y77.4365
G2 X158.6924 Y77.7246 I11.6974 J-6.549
G3 X158.7998 Y78.0371 I-0.5921 J0.3782
G1 X158.9073 Y78.1445
G1 X159.0342
G1 X159.1221 Y77.9785
G1 X159.1416 Y77.7393
G1 X159.044 Y77.417
G3 X158.6827 Y77.0654 I0.4514 J-0.8254
G1 X158.502 Y76.9678
G1 X158.4629 Y76.8311
G3 X158.2286 Y76.626 I0.2028 J-0.4682
G1 X158.0821 Y76.6064
G1 X158.0625 Y76.5283
G1 X157.9649 Y76.4209
G2 X157.5938 Y76.3232 I-0.3928 J0.7387
G2 X157.3008 Y76.3525 I-0.012 J1.359
G2 X157.0895 Y76.6293 I0.401 J0.5254
G2 X157.0079 Y76.9678 I1.081 J0.4397
G1 X156.9786
G2 X157.0665 Y77.3584 I1.0237 J-0.0251
G3 X157.4766 Y77.7588 I-7.0845 J7.6676
G3 X157.6304 Y77.8477 I-0.2877 J0.6746
G3 X158.043 Y78.1836 I-3.4022 J4.6016
G1 X158.0821
G1 X158.1504 Y78.3203
G2 X158.3702 Y78.4668 I0.5035 J-0.5173
G3 X158.5752 Y78.5547 I-1.6657 J4.1699
G2 X159.0245 Y78.8574 I6.0656 J-8.5159
G2 X159.3545 Y78.9581 I0.6194 J-1.4387
G2 X159.6934 Y79.0234 I1.6545 J-7.6749
G2 X160.0262 Y79.0771 I1.6343 J-9.0839
G2 X160.3623 Y79.1016 I0.3033 J-1.8424
G1 X160.5821 Y79.209
G1 X160.709 Y79.4629
G2 X160.9311 Y79.6575 I1.4124 J-1.3875
G2 X161.1973 Y79.7852 I0.4069 J-0.5073
G1 X161.3438 Y79.9316
G3 X161.8223 Y80.1123 I-44.7192 J119.1694
G2 X162.1836 Y80.2783 I2.1193 J-4.1365
G3 X162.5254 Y80.3857 I-0.2366 J1.3502
G3 X162.8233 Y80.4639 I0.0347 J0.4745
G1 X163.0772
G1 X163.1456 Y80.4248
G2 X163.1846 Y80.1807 I-0.3221 J-0.1767
G1 X163.0772 Y80.1123
G1 X162.9307
G1 X162.794 Y79.9609
G3 X162.1641 Y79.7949 I0.0277 J-1.3829
G1 X161.9493 Y79.8047
G1 X161.627 Y79.6973
G3 X161.3438 Y79.4922 I2.9964 J-4.436
G2 X161.0411 Y79.1797 I-27.6769 J26.5091
G1 X161.0118 Y79.0723
G2 X161.7149 Y79.0039 I-1.5526 J-19.6202
G3 X161.8877 Y78.8959 I0.4361 J0.5054
G3 X162.0762 Y78.8184 I1.0046 J2.1746
G1 X162.1836 Y78.6816
G1 X162.2911 Y78.6426
G2 X162.418 Y78.4229 I-0.795 J-0.6059
G2 X162.4577 Y78.3063 I-0.9488 J-0.3878
G2 X162.4668 Y78.1836 I-0.2485 J-0.0803
G1 X162.5059 Y78.1445
G2 X162.5743 Y77.4756 I-2.7422 J-0.6182
G2 X162.4818 Y77.1438 I-0.7261 J0.0236
G2 X162.2862 Y76.8604 I-1.4085 J0.7628
G1 X162.1788 Y76.8213
G1 X162.1397 Y76.7529
G1 Y76.7139
G2 X161.9133 Y76.5483 I-1.7175 J2.11
G2 X161.6807 Y76.3916 I-13.8708 J20.3463
G1 X161.5342 Y76.3623
G1 X161.71 Y76.2549
G2 X162.0323 Y75.752 I-1.0792 J-1.0463
G1 X161.9639 Y75.6445
G1 X162.003 Y75.4688
G2 X162.2081 Y75.2832 I-0.5992 J-0.8683
G1 X162.2471
G1 X162.4229 Y75.1465
G1 X162.5743 Y74.7852
G1 X162.6768 Y74.6777
G1 X162.6866 Y74.502
G2 X162.9112 Y74.0625 I-4.6726 J-2.6654
G2 X163.1456 Y73.8672 I-1.2354 J-1.7208
G1 X163.1846 Y73.6768
G1 X163.3995 Y73.4326
G3 X163.551 Y73.122 I1.5895 J0.5831
G3 X163.7315 Y72.8271 I7.7533 J4.5439
G1 X163.9268 Y72.4756
G3 X164.0377 Y72.3145 I1.0836 J0.6275
G3 X164.1905 Y72.1924 I0.3149 J0.2372
G1 Y72.1533
G1 X164.2686
G1 Y72.124
G1 X164.376
G1 X164.6202 Y72.2314
G1 X164.8399
G2 X164.9082 Y72.2607 I0.0875 J-0.1098
G3 X165.2305 Y72.29 I-0.2959 J5.0423
G3 X165.4698 Y72.3633 I-0.6508 J2.5535
G2 X165.7286 Y72.417 I0.2925 J-0.7591
G2 X166.3552 Y72.3716 I0.0357 J-3.8535
G2 X166.6622 Y72.296 I-0.3075 J-1.9089
G2 X166.9444 Y72.1533 I-0.3267 J-0.9968
G3 X167.335 Y71.8311 I7.3255 J8.4815
G1 Y71.543
G2 X167.2227 Y71.377 I-0.4375 J0.1749
G3 X167.1202 Y71.2207 I0.325 J-0.325
G1 X167.1983 Y71.0449
G1 X167.1202 Y70.9082
G2 X166.8954 Y70.8032 I-0.5083 J0.7953
G2 X166.6563 Y70.7373 I-0.7673 J2.3162
G3 X166.1582 Y70.625 I10.5159 J-47.7963
G3 X165.875 Y70.6543 I-1.3267 J-11.4414
G3 X165.3379 Y70.5859 I-0.0374 J-1.8505
G1 X165.1915 Y70.625
G1 X165.0157 Y70.7617
G1 X164.8399 Y70.8008
G1 X164.6641 Y71.0156
G1 X164.5811 Y71.0449
G3 X164.41 Y71.2199 I-0.4747 J-0.2931
G3 X164.1905 Y71.3281 I-0.5507 J-0.84
G1 X164.0147 Y71.5137
G1 X163.878 Y71.543
G3 X163.7315 Y71.5137 I0.3074 J-1.9179
G2 X163.2725 Y71.2598 I-4.5501 J7.6833
G3 X162.8819 Y71.123 I1.5516 J-5.0595
G3 X162.6621 Y71.0003 I0.7264 J-1.5582
G3 X162.4766 Y70.8301 I0.3876 J-0.6087
G1 X162.1641 Y70.7227
G1 X162.0176 Y70.5859
G3 X161.7962 Y70.5472 I0.0527 J-0.9523
G3 X161.1582 Y70.332 I2.1352 J-7.3857
G2 X160.8573 Y70.2822 I-0.3867 J1.4022
G2 X160.5528 Y70.2637 I-0.5679 J6.8198
G3 X160.2584 Y70.2317 I0.0835 J-2.1407
G3 X159.9815 Y70.127 I0.1027 J-0.6898
G1 X159.7666 Y70.1563
G1 X159.5909 Y70.0488
G3 X159.1368 Y69.9854 I0.2588 J-3.5074
G2 X158.6827 Y69.9219 I-0.5968 J2.6134
G2 X157.5938 Y70.0488 I0.0778 J5.4002
G2 X157.5115 Y70.1071 I0.0967 J0.2238
G2 X157.3106 Y70.332 I2.0018 J1.9904
G1 X157.2032 Y70.3711
G1 X157.0567 Y70.6934
G1 X157.0274 Y70.7227
G1 X157.2129 Y71.1426
G2 X157.5352 Y71.3867 I0.8625 J-0.8037
G2 X157.7253 Y71.4756 I0.6973 J-1.2436
G2 X157.9307 Y71.5186 I0.2261 J-0.5685
G2 X157.9844 Y71.5137 I0.0021 J-0.2746
G1 X158.1309 Y71.6211
G3 X158.3653 Y71.6406 I0.0655 J0.6299
G2 X158.5948 Y71.6895 I0.5913 J-2.2152
G1 X159.0635
G3 X159.3321 Y71.5381 I0.6015 J0.7533
G2 X159.6202 Y71.4063 I-1.6648 J-4.0186
G3 X160.0206 Y71.1523 I213.6698 J336.4982
G1 X160.2647 Y71.123
G1 X160.3428 Y71.0449
G1 X160.4112
G1 X160.4502 Y70.9375
G1 X160.3428 Y70.8008
G1 X159.9522
G2 X159.3565 Y71.0059 I6.1507 J18.8339
G3 X158.9463 Y71.1719 I-4.0927 J-9.5218
G2 X158.4825 Y71.3281 I0.7977 J3.135
G3 X157.9991 Y71.2256 I0.0598 J-1.4726
G2 X157.5547 Y71.084 I-1.0901 J2.6527
G1 X157.379 Y70.8008
G1 Y70.7227
G1 X157.7012 Y70.3027
G2 X157.8681 Y70.291 I0.0265 J-0.8154
G2 X158.0332 Y70.2637 I-0.6666 J-4.5404
G3 X158.4141 Y70.2148 I0.6393 J3.4771
G3 X158.8631 Y70.2568 I-0.098 J3.4723
G3 X159.3077 Y70.332 I-1.6681 J11.2085
G2 X159.5909 Y70.4102 I1.8024 J-5.9815
G3 X160.128 Y70.4395 I-0.1297 J7.3162
G3 X160.3428 Y70.498 I-5.6168 J21.0181
G2 X160.5625 Y70.5176 I0.1493 J-0.4339
G1 X160.7676 Y70.625
G1 X160.9141 Y70.5859
G3 X161.5147 Y70.8496 I-0.4627 J1.8698
G3 X162.0274 Y71.2305 I-45.078 J61.2174
G3 X162.5547 Y71.4746 I-11.7995 J26.1784
G2 X163.4678 Y71.9482 I5.7568 J-9.9813
G1 X163.1944 Y72.2314
G1 X163.126 Y72.2607
G3 X162.9795 Y72.4365 I-0.4037 J-0.1875
G1 X162.8233 Y72.7588
G3 X162.5059 Y72.9736 I-1.0468 J-1.2045
G2 X162.0762 Y73.8232 I3.2374 J2.1708
G1 X161.9297 Y73.8672
G1 Y73.8965
G1 X161.8614 Y73.9746
G1 X161.8223 Y74.082
G1 X161.793
G2 X161.6582 Y74.3075 I0.4759 J0.4375
G2 X161.5879 Y74.5605 I1.4984 J0.5525
G2 X161.34 Y74.9166 I1.8189 J1.5309
G2 X161.1241 Y75.293 I10.072 J6.0291
G3 X160.9522 Y75.5977 I-13.9217 J-7.6519
G3 X160.8621 Y75.7479 I-4.8595 J-2.8112
G3 X160.7579 Y75.8887 I-0.6295 J-0.3573
G1 X160.6114 Y75.8594
G1 X160.5381 Y75.752
G1 X160.1866
G1 X159.8643 Y75.6055
G3 X159.7762 Y75.5082 I0.1727 J-0.2449
G3 X159.7178 Y75.3906 I0.711 J-0.4264
G1 X159.6104
G1 Y75.3613
G1 X159.5811
G1 X159.503 Y75.2539
G1 X159.4737 Y74.9707
G1 X159.4346 Y74.8926
G1 X159.4737 Y74.8242
G1 X159.4346 Y74.7559
G2 X159.4136 Y74.5196 I-1.1302 J-0.0184
G2 X159.3663 Y74.2871 I-4.2787 J0.7499
G1 X159.3272
G1 X159.2979 Y74.2188
G1 Y74.1504
G1 X159.2588 Y74.1113
G1 X159.2198 Y74.0039
G1 X159.1123 Y73.8965
G1 X159.044 Y73.7158
G2 X158.5459 Y73.2568 I-6.5975 J6.6593
G3 X158.004 Y72.9346 I7.4999 J-13.2303
G1 X157.8965
G1 X157.7598 Y72.8271
G1 X157.2227
G2 X157.003 Y72.876 I0.2028 J1.4314
G3 X156.7637 Y72.9346 I-0.487 J-1.4709
G1 X156.6563 Y73.0029
G1 X156.627 Y73.0615
G2 X156.2901 Y73.1494 I0.0176 J0.7572
G1 X156.0069 Y73.4717
G2 X155.9177 Y73.7283 I1.2276 J0.5707
G0 Z8.0
G0 X159.9717 Y75.8887
G0 Z7.0
G1 F300.0 Z5.8
G2 F800.0 X160.5332 Y76.0107 I0.4872 J-0.8884
G1 X160.6846 Y76.1084
G1 X160.753
G1 Y76.1865
G1 X160.6846 Y76.2549
G1 X160.6358 Y76.3721
G2 X160.4356 Y76.5088 I0.2177 J0.5337
G2 X160.1377 Y76.4307 I-0.4417 J1.0771
G3 X159.9717 Y76.0791 I0.3325 J-0.372
G1 Y75.8887
G0 Z8.0
G0 X160.1866 Y76.6846
G0 Z7.0
G1 F300.0 Z5.8
G1 F800.0 X160.3819 Y76.792
G1 X160.5918
G1 X160.709 Y76.7139
G1 X160.9434
G1 X161.1485 Y76.5381
G1 X161.4024 Y76.5479
G2 X161.7637 Y76.9189 I0.6598 J-0.281
G1 X161.8711 Y77.2119
G1 X161.793 Y77.5342
G1 X161.8125 Y77.4756
G1 X161.8516 Y77.6709
G1 X161.7784 Y77.8564
G3 X161.7344 Y78.1982 I-1.1749 J0.0227
G2 X161.6905 Y78.5254 I1.4284 J0.3584
G3 X161.3322 Y78.7117 I-0.492 J-0.5084
G3 X160.9288 Y78.7305 I-0.2646 J-1.3427
G2 X160.9061 Y78.4652 I-0.7611 J-0.0685
G2 X160.8213 Y78.2129 I-1.6707 J0.4207
G1 X160.6846 Y78.0762
G1 Y77.9688
G1 X160.6456
G1 X160.5772 Y77.749
G1 X160.504 Y77.6807
G1 Y77.5732
G1 X160.3233 Y77.3975
G1 X160.1866 Y76.6846
G0 Z8.0
G0 X164.5811 Y71.9092
G0 Z7.0
G1 F300.0 Z5.8
G1 F800.0 X164.5518 Y71.8701
G1 Y71.7969
G1 X164.6934 Y71.6211
G1 X164.7715 Y71.582
G3 X164.8784 Y71.3178 I1.6211 J0.502
G3 X165.0547 Y71.0938 I0.5868 J0.2804
G3 X166.0508 Y70.8301 I1.1552 J2.3506
G3 X166.4805 Y71.0156 I-0.183 J1.0141
G1 X166.5098 Y71.1914
G1 X166.5489 Y71.2207
G1 X166.5879
G1 X166.6172 Y71.2988
G1 X166.9834 Y71.543
G1 X166.9932 Y71.6699
G1 X166.9444 Y71.8311
G3 X166.3965 Y72.0455 I-1.7973 J-3.7845
G3 X165.8165 Y72.1436 I-0.6264 J-1.9409
G3 X165.5381 Y72.0801 I0.0739 J-0.9659
G2 X165.2549 Y72.002 I-0.5171 J1.3222
G3 X165.0157 Y71.9775 I0.3692 J-4.8028
G2 X164.7997 Y71.9351 I-1.8705 J8.9517
G2 X164.5811 Y71.9092 I-0.2507 J1.1786
G0 Z8.0
G0 X163.1748 Y63.3496
G0 Z7.0
G1 F300.0 Z5.8
G1 F800.0 Y63.2031
G1 X163.1456 Y63.1641
G1 X162.9991 Y63.1348
G1 X162.96 Y63.0957
G1 Y62.9834
G1 X163.0381 Y62.9541
G1 X163.1748
G3 X163.2579 Y62.9688 I-0.0342 J0.4366
G2 X163.3604 Y62.9834 I0.0882 J-0.2509
G1 Y62.915
G2 X163.3213 Y62.7393 I-0.659 J0.0542
G1 X163.0381 Y62.7002
G1 X162.9307 Y62.7393
G1 X162.6768 Y62.7002
G1 Y62.6611
G1 X162.5694 Y62.5928
G1 X162.6084 Y62.2705
G3 X162.3887 Y62.1631 I0.5498 J-1.4029
G1 Y62.1338
G1 X162.3204
G1 X162.2129 Y62.0557
G1 X162.252 Y62.0264
G1 X162.1739 Y61.9189
G1 Y61.8115
G3 X162.1041 Y61.6827 I0.5139 J-0.3617
G3 X162.0469 Y61.5479 I4.4061 J-1.9472
G1 X162.0079 Y61.5186
G2 X162.0176 Y61.4209 I-0.5425 J-0.1036
G2 X161.9222 Y61.1946 I-0.4024 J0.0364
G2 X161.754 Y61.0156 I-1.0633 J0.8308
G1 X161.7149 Y60.8398
G3 X161.5684 Y60.4492 I0.2995 J-0.3351
G3 X161.461 Y60.3125 I0.2201 J-0.2835
G3 X161.1778 Y60.1367 I0.3422 J-0.8674
G1 Y59.9902
G1 X161.1094 Y59.8828
G1 X161.1485 Y59.8438
G1 X161.1094 Y59.7754
G1 X160.8946 Y59.6387
G1 X160.7872
G1 X160.7188 Y59.3457
G1 X160.6114 Y59.209
G1 X160.5723 Y59.0625
G1 X160.4649 Y58.9941
G1 X160.3526 Y58.8135
G1 X160.3233
G1 X160.2452 Y58.7354
G2 X159.9478 Y58.629 I-2.8176 J7.4089
G2 X159.7963 Y58.5829 I-0.9161 J2.7401
G2 X159.6397 Y58.5596 I-0.1485 J0.4589
G1 X159.4346 Y58.4521
G1 X159.3956
G1 X159.2491 Y58.3838
G1 X158.9659
G1 X158.8584 Y58.4912
G1 X158.8291 Y58.5986
G1 X158.7901 Y58.6377
G1 X158.8291 Y58.7061
G2 X159.2198 I0.1953 J-0.9765
G2 X159.4346 Y58.8135 I0.3578 J-0.4471
G2 X159.6788 Y58.8428 I0.1972 J-0.6113
G1 X159.7178 Y58.8818
G1 X159.8936 Y58.9209
G1 X160.0401 Y59.0625
G1 X160.1084 Y59.4238
G1 X160.1475 Y59.4531
G1 Y59.668
G1 X160.1768 Y59.707
G1 Y59.8145
G1 X160.2452 Y59.9512
G3 X160.4356 Y60.0977 I-0.6491 J1.0409
G1 X160.6114 Y60.1367
G1 X160.6797 Y60.2051
G1 Y60.2441
G1 X160.7481 Y60.2734
G3 X160.7872 Y60.8105 I-1.6719 J0.3916
G1 X160.8262 Y60.8789
G3 X161.002 Y61.0303 I-0.1813 J0.3883
G2 X161.1387 Y61.5088 I31.8291 J-8.8352
G1 X161.0997 Y61.5869
G2 X161.1924 Y61.7871 I0.9029 J-0.2968
G3 X161.2754 Y62.0068 I-0.4039 J0.2781
G1 X161.3438 Y62.085
G1 Y62.1924
G1 X161.4219 Y62.2217
G2 X161.5 Y62.3682 I1.1329 J-0.5101
G3 X161.5782 Y62.5146 I-1.0516 J0.6549
G3 X161.7442 Y62.6025 I-0.0388 J0.2741
G1 X161.8516
G1 X161.8223 Y62.6611
G1 X161.7149 Y62.7393
G1 X161.5391 Y62.7686
G1 X161.461 Y62.8467
G1 X161.3926 Y62.876
G1 X161.3243 Y62.9834
G1 X161.0704 Y63.0225
G2 X160.7872 Y62.9541 I-0.7955 J2.6747
G1 X160.7481 Y62.876
G3 X160.5388 Y62.7898 I0.1668 J-0.702
G3 X160.3526 Y62.6611 I0.8358 J-1.4091
G1 X160.0694 Y62.5928
G1 X160.0401 Y62.5537
G1 Y62.5244
G1 X159.8936 Y62.4561
G1 X159.8252 Y62.3779
G1 X159.6788
G1 X159.6397 Y62.5537
G1 X159.7276 Y62.7197
G1 X159.8252 Y62.8076
G2 X159.8741 Y63.0518 I1.1727 J-0.1076
G1 X159.8545 Y63.1348
G1 X160.1768 Y63.0957
G1 X160.3526 Y63.1641
G1 X160.4356 Y63.2422
G1 X160.6504 Y63.2031
G2 X161.0398 Y63.266 I4.6904 J-27.826
G2 X161.4317 Y63.3105 I0.5771 J-3.3279
G1 X161.5 Y63.2715
G1 X161.6075
G1 X161.9297 Y63.0957
G1 Y63.0518
G3 X162.3204 Y62.9834 I0.3027 J0.5794
G1 Y63.0225
G2 X162.9991 Y63.3496 I6.4743 J-12.5642
G1 X163.1748
G0 Z8.0
G0 X159.044 Y63.3887
G0 Z7.0
G1 F300.0 Z5.8
G2 F800.0 X158.9366 Y63.1055 I-0.6642 J0.09
G1 X158.9463 Y63.0127
G1 X158.8291 Y62.876
G2 X158.6827 Y62.4756 I-1.2998 J0.2485
G1 X158.712 Y62.3486
G2 X158.6534 Y62.1045 I-1.6392 J0.2643
G3 X158.6094 Y61.8604 I0.9682 J-0.3003
G3 X158.6143 Y61.8018 I0.3558 J0.0001
G1 X158.4678 Y61.665
G1 X158.3995 Y61.4795
G1 X158.4288 Y61.4111
G1 X158.3995 Y61.3037
G1 X158.4288 Y61.2158
G1 X158.3995 Y61.0596
G1 X158.292 Y60.9766
G2 X158.1846 Y60.7129 I-3.2554 J1.1726
G3 X157.9307 Y60.4785 I2.0949 J-2.5241
G2 X158.6924 Y60.625 I3.4236 J-15.7491
G1 X158.712 Y60.5469
G1 X158.6534 Y60.4492
G2 X158.5067 Y60.3697 I-0.4093 J0.5802
G2 X158.0381 Y60.1953 I-2.5625 J6.1669
G2 X157.75 Y60.0586 I-5.1182 J10.4129
G1 Y60.0195
G1 X157.7012 Y60.0
G3 X157.5263 Y59.9716 I-0.0046 J-0.5239
G3 X157.3594 Y59.9121 I0.5979 J-1.9423
G1 X157.1836
G1 X157.1446 Y59.9512
G1 X157.0079 Y59.9805
G1 X156.9688 Y60.0586
G1 X157.0079 Y60.166
G1 X157.1153 Y60.1953
G1 X157.1446 Y60.3027
G2 X157.3985 Y60.3711 I0.3045 J-0.6252
G2 X157.584 Y60.791 I23.4287 J-10.1013
G3 X157.6329 Y61.2744 I-1.804 J0.4264
G2 X157.6915 Y61.7236 I1.8554 J-0.0136
G1 X157.75 Y61.8018
G1 X157.8575 Y61.8701
G1 Y61.9482
G1 X157.8965
G1 Y62.2314
G3 X157.9698 Y62.3682 I-0.1988 J0.1945
G1 X158.0479 Y62.4268
G2 X158.1163 Y62.6709 I4.445 J-1.113
G3 X158.1748 Y62.749 I-0.1716 J0.1898
G1 Y62.8076
G3 X158.3018 Y62.9834 I-1.5078 J1.2227
G1 X158.292 Y63.0615
G3 X158.0772 Y62.915 I1.3797 J-2.2544
G1 X157.9698 Y62.8857
G1 X157.8282 Y62.7783
G2 X157.5059 Y62.7393 I-0.2352 J0.5917
G1 X157.4668 Y62.8857
G1 X157.5059 Y62.9541
G1 X157.5743
G1 X157.6133 Y63.0225
G1 X157.8282 Y63.0615
G1 X157.8575 Y63.1055
G2 X158.1846 Y63.2813 I1.3815 J-2.1788
G3 X158.3506 Y63.3008 I-0.0385 J1.0428
G2 X158.5264 Y63.3887 I1.1019 J-1.9841
G2 X158.8975 Y63.4277 I0.3261 J-1.3158
G2 X159.044 Y63.3887 I-0.2202 J-1.1199
G0 Z8.0
G0 X156.3633 Y61.7529
G0 Z7.0
G1 F300.0 Z5.8
G1 F800.0 Y61.6748
G1 X156.4024 Y61.6357
G1 X156.3829 Y61.4111
G1 X156.3438 Y61.3525
G1 X156.2364
G1 X156.129 Y61.4111
G1 X156.0215
G1 X155.9922 Y61.3525
G1 X155.7774 Y61.2842
G1 X155.709 Y61.2158
G2 X155.4551 Y61.3525 I0.5672 J1.3575
G1 X155.3086
G1 X155.2403 Y61.2842
G1 X155.1036
G1 X155.0645 Y61.2158
G3 X154.8057 Y61.2842 I-0.9518 J-3.0791
G1 X154.5616
G1 X154.4932 Y61.2158
G1 X154.4151
G1 X154.3467 Y61.3525
G1 X154.4639 Y61.4893
G1 X154.3663 Y61.6357
G1 X154.4053 Y61.7529
G1 X154.7959 Y61.6748
G1 X154.8252 Y61.6357
G1 X155.084 Y61.5576
G1 Y61.6357
G1 X155.2989
G1 X155.3672 Y61.6748
G2 X155.3916 Y61.6699 I-0.0038 J-0.0823
G3 X155.4161 Y61.665 I0.0282 J0.0775
G3 X155.4649 Y61.6699 I-0.0181 J0.428
G2 X155.5137 Y61.6748 I0.0672 J-0.4258
G1 X155.5821 Y61.6357
G1 X155.6895
G1 X155.7969 Y61.7529
G1 X156.1192 Y61.7822
G2 X156.3633 Y61.7529 I-1.7395 J-15.5277
G0 Z8.0
G0 X153.629 Y62.5049
G0 Z7.0
G1 F300.0 Z5.8
G3 F800.0 X153.4922 Y62.3291 I0.8211 J-0.7797
G3 X153.1938 Y62.1611 I0.7497 J-1.6803
G3 X152.9112 Y61.9678 I5.3222 J-8.0855
G1 Y61.8311
G1 X152.9502 Y61.7529
G1 X153.0577 Y61.6846
G1 X153.0186 Y61.5479
G1 X153.0577 Y61.4404
G2 X153.4922 Y61.1865 I-1.6764 J-3.3681
G1 X153.5899 Y60.9375
G1 Y60.8594
G1 X153.5215 Y60.6836
G1 Y60.5762
G1 X153.4629 Y60.4883
G2 X153.1651 Y60.332 I-1.0284 J1.5983
G1 X152.9893 Y60.1855
G3 X152.9502 Y60.0488 I0.7483 J-0.2877
G1 X152.8819 Y60.0098
G1 X152.8428 Y59.9023
G2 X152.6557 Y59.8329 I-0.2435 J0.3695
G2 X152.0616 Y59.7949 I-0.5281 J3.5913
G3 X151.9395 Y59.7754 I0.0398 J-0.6399
G2 X151.8077 Y59.7559 I-0.1209 J0.3611
G2 X151.5879 Y59.6484 I-0.3372 J0.4113
G1 X151.3438 Y59.5801
G2 X151.1143 Y59.4775 I-5.512 J12.0282
G2 X150.8457 Y59.4434 I-0.1924 J0.4399
G1 X150.6993 Y59.3359
G3 X150.5144 Y59.2759 I0.1573 J-0.7995
G3 X150.3379 Y59.1943 I1.4403 J-3.3457
G2 X149.918 Y59.0137 I-1.4934 J2.8928
G1 X149.7422 Y58.8623
G1 Y58.833
G3 X149.6739 Y58.7549 I0.1913 J-0.2364
G3 X149.5274 Y58.6475 I0.1706 J-0.3862
G1 X149.4883
G1 X149.459 Y58.5791
G1 Y58.4717
G1 X149.5274 Y58.3643
G1 Y58.2959
G1 X149.3467 Y58.1885
G1 X149.0635 Y58.2568
G1 X148.917 Y58.3643
G1 Y58.54
G1 X148.9561
G1 Y58.5791
G1 X149.1319 Y58.6475
G2 X149.1856 Y58.7402 I0.5975 J-0.284
G3 X149.2393 Y58.833 I-0.545 J0.3775
G1 X149.2686
G2 X149.7715 Y59.1895 I1.0833 J-0.9955
G1 Y59.2578
G2 X150.1719 Y59.4727 I4.0533 J-7.0735
G3 X150.5235 Y59.6191 I-0.4631 J1.6065
G1 X150.6309
G2 X150.7383 Y59.6875 I0.8863 J-1.2742
G1 X151.2364 Y59.834
G2 X151.3438 Y59.9023 I0.6396 J-0.8865
G2 X151.5922 Y59.999 I4.6155 J-11.4992
G2 X151.8467 Y60.0781 I0.589 J-1.4449
G1 X151.8858 Y60.1172
G1 X152.2764 Y60.2246
G1 Y60.2539
G1 X152.4522
G2 X152.5596 Y60.3613 I0.6539 J-0.5465
G3 X152.5694 Y60.6641 I-0.4588 J0.1663
G1 X152.6084 Y60.8203
G1 X152.5889 Y60.9668
G3 X152.1299 Y61.1572 I-2.7403 J-5.9565
G1 X152.0616 Y61.0791
G2 X151.7002 Y61.0498 I-0.2514 J0.8575
G2 X151.5928 Y61.1865 I0.2201 J0.2835
G1 X151.3731 Y61.2549
G1 Y61.5088
G1 X151.4854 Y61.6162
G1 X151.7784 Y61.7236
G1 Y61.7529
G2 X151.9658 Y61.8747 I0.5934 J-0.7083
G2 X152.169 Y61.9678 I1.2112 J-2.3758
G1 Y62.0068
G1 X152.4522
G1 X152.5889 Y62.0752
G1 X152.628 Y62.1533
G1 Y62.1826
G1 X152.667
G1 X152.7354 Y62.3584
G3 X152.5233 Y62.4077 I-0.2057 J-0.4044
G3 X152.3057 Y62.3975 I-0.0369 J-1.5384
G2 X152.1983 Y62.5732 I0.6802 J0.5364
G1 X152.1299 Y62.6123
G1 X151.9151
G3 X151.8077 Y62.5732 I0.0861 J-0.4039
G2 X151.688 Y62.6519 I0.1091 J0.2964
G2 X151.5928 Y62.7588 I0.7303 J0.7461
G3 X151.5586 Y62.7539 I0.015 J-0.2267
G2 X151.5245 Y62.749 I-0.0488 J0.2196
G2 X151.4707 Y62.7539 I0.0112 J0.4214
G3 X151.417 Y62.7588 I-0.0646 J-0.4125
G1 X151.2754 Y62.6514
G3 X151.168 Y62.4365 I1.4551 J-0.8618
G1 X151.0606 Y62.3584
G1 Y62.29
G1 X151.0215
G1 X150.9532 Y62.1826
G1 X150.9141
G1 Y62.0752
G1 X150.8067 Y62.0068
G1 X150.67
G2 X150.5235 Y62.1143 I0.1324 J0.3341
G1 X150.5625 Y62.2607
G1 X150.6309 Y62.3291
G1 Y62.3584
G3 X150.7383 Y62.5049 I-0.2789 J0.3171
G1 X150.9825 Y62.5732
G2 X151.168 Y62.7197 I0.5537 J-0.5105
G1 Y62.8564
G1 X151.3731 Y63.0762
G1 X151.417 Y63.2617
G1 X151.4854 Y63.291
G2 X151.7002 Y63.4668 I0.5173 J-0.4131
G1 X151.8663 Y63.4863
G1 X151.8858 Y63.5449
G1 X151.9541
G2 X152.1299 Y63.5059 I-0.0542 J-0.659
G1 X152.1983 Y63.4375
G1 X152.2764 Y63.2617
G3 X152.4628 Y63.1648 I0.3714 J0.4865
G3 X152.667 Y63.1152 I0.4083 J1.237
G1 X152.6963 Y63.042
G1 X152.8038 Y62.9639
G1 X152.9112 Y62.7881
G1 Y62.7588
G3 X153.2334 Y62.7197 I0.2611 J0.805
G1 X153.3018 Y62.7588
G1 X153.4483 Y62.6807
G1 X153.5899 Y62.5049
G1 X153.629
G0 Z8.0
G0 X150.0244 Y63.3292
G0 Z7.0
G1 F300.0 Z5.8
G2 F800.0 X149.9278 Y63.1055 I-0.6534 J0.1494
G1 X149.9375 Y63.0127
G1 X149.8204 Y62.876
G2 X149.6739 Y62.4756 I-1.2998 J0.2485
G1 X149.7032 Y62.3486
G2 X149.6446 Y62.1045 I-1.6392 J0.2643
G3 X149.6006 Y61.8604 I0.9682 J-0.3003
G3 X149.6055 Y61.8018 I0.3558 J0.0001
G1 X149.459 Y61.665
G1 X149.3907 Y61.4795
G1 X149.42 Y61.4111
G1 X149.3907 Y61.3037
G1 X149.42 Y61.2158
G1 X149.3907 Y61.0596
G1 X149.2832 Y60.9766
G2 X149.1758 Y60.7129 I-3.2554 J1.1726
G3 X148.9219 Y60.4785 I2.0949 J-2.5241
G2 X149.6836 Y60.625 I3.4236 J-15.7491
G1 X149.7032 Y60.5469
G1 X149.6446 Y60.4492
G2 X149.4979 Y60.3697 I-0.4093 J0.5802
G2 X149.0293 Y60.1953 I-2.5625 J6.1669
G2 X148.7413 Y60.0586 I-5.1182 J10.4129
G1 Y60.0195
G1 X148.6924 Y60.0
G3 X148.5175 Y59.9716 I-0.0046 J-0.5239
G3 X148.3506 Y59.9121 I0.5979 J-1.9423
G1 X148.1748
G1 X148.1358 Y59.9512
G1 X147.9991 Y59.9805
G1 X147.96 Y60.0586
G1 X147.9991 Y60.166
G1 X148.1065 Y60.1953
G1 X148.1358 Y60.3027
G2 X148.3897 Y60.3711 I0.3045 J-0.6252
G2 X148.5752 Y60.791 I23.4287 J-10.1013
G3 X148.6241 Y61.2744 I-1.804 J0.4264
G2 X148.6827 Y61.7236 I1.8554 J-0.0136
G1 X148.7413 Y61.8018
G1 X148.8487 Y61.8701
G1 Y61.9482
G1 X148.8877
G1 Y62.2314
G3 X148.961 Y62.3682 I-0.1988 J0.1945
G1 X149.0391 Y62.4268
G2 X149.1075 Y62.6709 I4.445 J-1.113
G3 X149.1661 Y62.749 I-0.1716 J0.1898
G1 Y62.8076
G3 X149.293 Y62.9834 I-1.5078 J1.2227
G1 X149.2832 Y63.0615
G3 X149.0684 Y62.915 I1.3797 J-2.2544
G1 X148.961 Y62.8857
G1 X148.8194 Y62.7783
G2 X148.4971 Y62.7393 I-0.2352 J0.5917
G1 X148.4581 Y62.8857
G1 X148.4971 Y62.9541
G1 X148.5655
G1 X148.6045 Y63.0225
G1 X148.8194 Y63.0615
G1 X148.8487 Y63.1055
G2 X149.1758 Y63.2813 I1.3815 J-2.1788
G3 X149.3418 Y63.3008 I-0.0385 J1.0428
G2 X149.5176 Y63.3887 I1.1019 J-1.9841
G2 X149.8887 Y63.4277 I0.3261 J-1.3158
G2 X150.0352 Y63.3887 I-0.2202 J-1.1199
G2 X150.0244 Y63.3292 I-0.6642 J0.09
G0 Z8.0
G0 X147.3545 Y61.7529
G0 Z7.0
G1 F300.0 Z5.8
G1 F800.0 Y61.6748
G1 X147.3936 Y61.6357
G1 X147.3741 Y61.4111
G1 X147.335 Y61.3525
G1 X147.2276
G1 X147.1202 Y61.4111
G1 X147.0127
G1 X146.9834 Y61.3525
G1 X146.7686 Y61.2842
G1 X146.7002 Y61.2158
G2 X146.4463 Y61.3525 I0.5672 J1.3575
G1 X146.2998
G1 X146.2315 Y61.2842
G1 X146.0948
G1 X146.0557 Y61.2158
G3 X145.7969 Y61.2842 I-0.9518 J-3.0791
G1 X145.5528
G1 X145.4844 Y61.2158
G1 X145.4063
G1 X145.3379 Y61.3525
G1 X145.4551 Y61.4893
G1 X145.3575 Y61.6357
G1 X145.3965 Y61.7529
G1 X145.7872 Y61.6748
G1 X145.8165 Y61.6357
G1 X146.0752 Y61.5576
G1 Y61.6357
G1 X146.2901
G1 X146.3584 Y61.6748
G2 X146.3829 Y61.6699 I-0.0038 J-0.0823
G3 X146.4073 Y61.665 I0.0282 J0.0775
G3 X146.4561 Y61.6699 I-0.0181 J0.428
G2 X146.5049 Y61.6748 I0.0672 J-0.4258
G1 X146.5733 Y61.6357
G1 X146.6807
G1 X146.7881 Y61.7529
G1 X147.1104 Y61.7822
G2 X147.3545 Y61.7529 I-1.7395 J-15.5277
G0 Z8.0
G0 X144.4795 Y61.5755
G0 Z7.0
G1 F300.0 Z5.8
G2 F800.0 X144.4799 Y61.5679 I-0.6599 J-0.0407
G2 X144.4688 Y61.2744 I-1.4414 J-0.0924
G1 X144.4297 Y61.1768
G1 Y61.1377
G1 X144.3321 Y61.0303
G1 Y60.957
G3 X144.1807 Y60.7422 I0.948 J-0.8286
G1 X144.1123 Y60.7031
G3 X144.0853 Y60.6169 I1.3307 J-0.4652
G3 X144.0733 Y60.5273 I0.2258 J-0.0758
G1 X143.9268 Y60.4199
G1 Y60.3516
G1 X143.751 Y60.2441
G1 Y60.2051
G1 X143.6143 Y60.166
G1 X143.5752 Y60.1367
G1 X143.5069 Y59.9609
G3 X143.3609 Y59.8963 I0.1897 J-0.6255
G3 X143.2237 Y59.8145 I1.4857 J-2.6472
G2 X143.1065 Y59.7949 I-0.1513 J0.5465
G2 X142.9893 Y59.8096 I0.0333 J0.7426
G3 X142.8721 Y59.8242 I-0.15 J-0.7243
G3 X142.7305 Y59.8096 I0.0355 J-1.0347
G2 X142.5889 Y59.7949 I-0.1769 J1.0182
G2 X142.4034 Y59.8145 I0.0367 J1.2399
G1 X142.3643 Y59.9219
G1 X142.2129 Y59.9902
G1 X142.1836 Y60.0977
G3 X142.0079 Y60.166 I-0.2304 J-0.3322
G2 X141.9297 Y60.459 I0.3472 J0.2495
G2 X141.8223 Y60.6348 I0.6203 J0.4998
G1 Y60.7031
G2 X141.4707 Y61.0303 I1.5863 J2.0571
G1 X141.3633 Y61.3818
G2 X141.4317 Y61.7725 I11.4573 J-1.8037
G1 X141.5391 Y61.9189
G3 X141.7784 Y62.0166 I-1.0266 J2.857
G3 X141.9688 Y62.1729 I-0.2717 J0.5253
G1 X142.0079
G2 X142.3252 Y62.2705 I0.3034 J-0.4215
G2 X142.4594 Y62.3828 I0.3348 J-0.2636
G2 X142.6182 Y62.4561 I0.5382 J-0.9583
G1 X142.6866 Y62.5635
G2 X142.5401 Y62.9834 I0.6481 J0.4616
G2 X142.2959 Y63.2031 I4.1396 J4.8451
G1 Y63.2422
G3 X142.1836 Y63.418 I-1.046 J-0.5445
G1 Y63.5938
G3 X142.3063 Y63.6714 I-0.1021 J0.2971
G3 X142.4034 Y63.7793 I-0.679 J0.7082
G2 X142.6475 Y63.8086 I0.191 J-0.5594
G1 X142.6866 Y63.8867
G1 X142.7256
G2 X143.0088 Y64.0918 I0.7694 J-0.7644
G1 X143.0381 Y64.1699
G3 X143.2323 Y64.2547 I-0.6247 J1.6952
G3 X143.3995 Y64.3848 I-0.1866 J0.4124
G1 X143.5069 Y64.4141
G1 X143.8975 Y64.3457
G1 X143.9268 Y64.3066
G1 X144.0342 Y64.2773
G1 X144.0733 Y64.1992
G1 X144.2198 Y64.1699
G2 X144.2412 Y64.0782 I-1.6638 J-0.4363
G2 X144.2491 Y63.9844 I-0.2827 J-0.0711
G1 X144.4297 Y63.8086
G1 Y63.6719
G1 X144.4688 Y63.6328
G1 Y63.457
G2 X144.4297 Y63.2813 I-0.659 J0.0542
G1 X144.3321 Y63.1348
G1 X144.1416 Y63.0615
G1 X144.1123 Y62.9834
G1 X143.9268 Y62.8467
G1 Y62.8076
G1 X143.8584
G1 X143.5166 Y62.583
G1 Y62.4756
G1 X143.6143 Y62.3096
G3 X143.9854 Y62.2314 I1.3909 J5.6863
G2 X144.3321 Y61.958 I-0.6619 J-1.1957
G1 X144.3614 Y61.8799
G1 X144.4004 Y61.8506
G2 X144.4795 Y61.5755 I-0.5809 J-0.3158
G0 Z8.0
G0 X143.8194 Y61.3818
G0 Z7.0
G1 F300.0 Z5.8
G2 F800.0 X143.7217 Y61.5283 I0.1429 J0.201
G3 X143.4678 Y61.5967 I-0.3901 J-0.9433
G2 X143.3995 Y61.6748 I0.1913 J0.2364
G1 Y61.7041
G1 X143.292 Y61.7432
G3 X143.2199 Y61.9129 I-0.5686 J-0.1414
G3 X143.1163 Y62.0654 I-1.3978 J-0.8385
G1 X143.0772
G3 X142.9307 Y62.3096 I-5.3868 J-3.0661
G1 X142.6475 Y62.2412
G1 X142.5108 Y62.0947
G1 X142.4913 Y62.0068
G3 X142.3252 Y61.958 I0.2734 J-1.2362
G3 X142.2115 Y61.7618 I0.8199 J-0.6061
G3 X142.1739 Y61.5381 I0.3918 J-0.181
G3 X142.3643 Y61.3135 I3.0205 J2.3678
G1 X142.4424 Y61.1084
G1 X142.4131 Y60.9375
G3 X142.5791 Y60.3516 I4.3046 J0.9031
G1 Y60.2051
G1 X142.6866 Y60.1367
G1 X142.8623 Y60.166
G1 X142.9014 Y60.1367
G1 X143.2237 Y60.2051
G2 X143.3457 Y60.3125 I0.4895 J-0.4332
G3 X143.4678 Y60.4199 I-0.368 J0.5413
G1 X143.5752 Y60.459
G1 X143.7217 Y60.6641
G3 X143.7901 Y60.9326 I-9.6617 J2.6023
G2 X143.8584 Y61.2061 I8.236 J-1.9137
G1 X143.8194 Y61.3818
G0 Z8.0
G0 X143.4678 Y63.0225
G0 Z7.0
G1 F300.0 Z5.8
G1 F800.0 X143.7217 Y63.0957
G3 X143.8975 Y63.3105 I-0.9819 J0.9827
G1 X143.9268
G1 Y63.3496
G1 X143.9659 Y63.3789
G1 Y63.4863
G2 X143.751 Y63.5645 I0.0581 J0.4942
G3 X143.7217 Y63.8477 I-1.0252 J0.0371
G1 X143.6436 Y63.916
G1 X143.4678 Y63.8867
G1 X143.3604 Y63.9551
G1 X143.0381 Y63.7402
G1 Y63.6719
G1 X143.1163 Y63.4863
G1 X143.2237 Y63.457
G1 Y63.3789
G1 X143.253
G1 X143.3604 Y63.2031
G1 Y63.1348
G1 X143.3995 Y63.0615
G1 X143.4678 Y63.0225
G0 Z8.0
M5
M30
